!!!!SEGMENT: pl-wn--mus-iii-128-987-cim_wieniawski-henryk--2me-polonaise-brillante-op-21.krn
!!!cenid: 18xx:3812
!!!COM: Wieniawski, Henryk
!!!COM-rismID: pe137176
!!!CDT: 1835/07/10-1880/03/31
!!!CNT:
!!!OTL: 2me polonaise brillante op. 21
!!!PDT:
!!!AGN:
!!!SMS-siglum: PL-Wn
!!!SMS-shelfmark: Mus.III.128.987 Cim.
!!!SMS-shelfwork: W
!!!SMS-variant: Partytura: PL-Wn Mus.III.128.987 Cim.:2-15
!!!SMS-altvar: VIOLON.: PL-Wn Mus.III.128.987 Cim.:18-24
!!!NIFC-rismSourceID:
!!!NIFC-islandoraID:
!!!URL-pdf-islandora:
!!!URL-scan: https://polona.pl/item/2-me-polonaise-brillante-pour-le-violon-avec-accompagnement-d-orchestre-ou-de-piano,MTA5MDc3NzQ1/0/#info:metadata @EN{Scan on Polona} @PL{Skany w portalu Polona}
!!!ONB-nifc: UWAGA: na podstawie partytury (SMS:variant), partia skrzypiec do SMS:altvar
!!!OMD: Allegro moderato.
!!!AIN: 1 piano 1 violn
!!!key: A
**kern	**kern	**dynam	**kern	**fing	**dynam
*part2	*part2	*part2	*part1	*part1	*part1
*staff3	*staff2	*	*staff1	*	*
*I"Piano	*I"Piano	*	*I"Violon	*	*
*mI"Pianoforte	*mI"Pianoforte	*	*mI"Violino	*	*
*Ipiano	*Ipiano	*	*Ivioln	*	*
*ICklav	*ICklav	*	*ICstr	*	*
*IGacmp	*IGacmp	*	*IGsolo	*	*
*clefF4	*clefG2	*	*clefG2	*	*
*kcancel	*kcancel	*	*kcancel	*	*
*k[f#c#g#]	*k[f#c#g#]	*	*k[f#c#g#]	*	*
*A:	*A:	*	*A:	*	*
*M3/4	*M3/4	*	*M3/4	*	*
*	*	*	*scale:75%	*	*
=1	=1	=1	=1	=1	=1
*	*^	*	*	*	*
8e 8B 8G# 8E\	8.gg#L 8.ee 8.b\	4ryy	ff	2.r	.	.
8r	.	.	.	.	.	.
.	16bbJk 16b\	.	.	.	.	.
4r	4.eee 4.ee/	8.re	.	.	.	.
.	.	16b\	.	.	.	.
4B 4E 4GG#\	.	4ee\	.	.	.	.
.	8gg# 8ee 8b/	.	.	.	.	.
*	*v	*v	*	*	*	*
=2	=2	=2	=2	=2	=2
*^	*	*	*	*	*
!LO:N:vis=2	!	!	!	!	!	!
8AL 8F#/	2A 2F# 2C# 2AA\	8ff#L 8cc# 8a\	.	2.r	.	.
8A 8F#/	.	8aa 8cc#\	.	.	.	.
8B 8G#/	.	8gg# 8b\	.	.	.	.
8c#J 8A/	.	8ff# 8a\	.	.	.	.
8.BL 8.A 8.F# 8.BB\	4ryy	8ee 8g#\	.	.	.	.
.	.	8dd#XJ 8f#\	.	.	.	.
16BJk 16A 16F# 16BB\	.	.	.	.	.	.
*v	*v	*	*	*	*	*
=3	=3	=3	=3	=3	=3
8B 8G# 8E\	8ee 8g# 8e\	.	2.r	.	.
8r	16r<	.	.	.	.
.	16B</	.	.	.	.
4r	4.e</	.	.	.	.
4r	.	.	.	.	.
.	8G#</	.	.	.	.
=4	=4	=4	=4	=4	=4
*^	*	*	*	*	*
2AA 2AAA\	2ryy	(8F#</L	.	2.r	.	.
.	.	8A</	.	.	.	.
.	.	8G#</	.	.	.	.
.	.	8F#</J)	.	.	.	.
!LO:SIC:s=(>8EL	!	!	!	!	!	!
(8E\L	4BB 4BBB\	4B< 4F#</	.	.	.	.
8D#X\J)	.	.	.	.	.	.
*v	*v	*	*	*	*	*
!!LO:LB:g=original
=5	=5	=5	=5	=5	=5
8EE\	(8.B<L 8.G#< 8.E</	.	2.r	.	.
8r	.	.	.	.	.
.	16B</Jk	.	.	.	.
!	!LO:TUP:b	!	!	!	!
4r	12e/L	.	.	.	.
.	12g#/	.	.	.	.
.	12b/J	.	.	.	.
4r	8.ee\L	.	.	.	.
.	16cc#\Jk)	.	.	.	.
=6	=6	=6	=6	=6	=6
4r	(2b\	.	2.r	.	.
4r	.	.	.	.	.
4F# 4BB\	4d#X 4A/)	.	.	.	.
=7	=7	=7	=7	=7	=7
(8.E\L	8.e 8.G#/	.	2.r	.	.
16BB\Jk	16r	.	.	.	.
!LO:TUP:a	!	!	!	!	!
12E\L	4ryy	.	.	.	.
12G#\	.	.	.	.	.
12B\J)	.	.	.	.	.
!LO:TX:a:t=m.d.	!	!	!	!	!
4ryy	(8.e<\L	.	.	.	.
.	16c#<\Jk)	.	.	.	.
=8	=8	=8	=8	=8	=8
4r	(2B</	.	2.r	.	.
4r	.	.	.	.	.
4AA 4BBB\	4D#X</)	.	.	.	.
=9	=9	=9	=9	=9	=9
8GG# 8EE\	8E</	.	2.r	.	.
8r	(16e/LL	.	.	.	.
.	16fn/JJ)	.	.	.	.
4r	(16f/LL	.	.	.	.
.	16e/)	.	.	.	.
.	(16e/	.	.	.	.
.	16g#/JJ)	.	.	.	.
4r	(16g#/LL	.	.	.	.
.	16e/)	.	.	.	.
.	(16e/	.	.	.	.
.	16b/JJ)	.	.	.	.
!!LO:LB:g=original
=10	=10	=10	=10	=10	=10
*	*^	*	*	*	*
8r	2.b/	8r	.	2.r	.	.
4dn 4B 4A 4Fn\	.	(>16a\LL	.	.	.	.
.	.	16b\JJ)	.	.	.	.
.	.	(>16b\LL	.	.	.	.
.	.	16a\)	.	.	.	.
8dL 8B 8A 8F\	.	(>16a\	.	.	.	.
.	.	16dd\JJ)	.	.	.	.
8d 8B 8A 8F\	.	(>16dd\LL	.	.	.	.
.	.	16a\)	.	.	.	.
8dJ 8B 8A 8F\	.	(>16a\	.	.	.	.
.	.	16aa\JJ)	.	.	.	.
*	*v	*v	*	*	*	*
=11	=11	=11	=11	=11	=11
8e 8B 8G# 8E\	8gg#L 8ee 8b\	.	2.r	.	.
8r	(16ee\L	.	.	.	.
.	16ffn\JJ)	.	.	.	.
4r	(16ff\LL	.	.	.	.
.	16ee\)	.	.	.	.
.	(16ee\	.	.	.	.
.	16gg#\JJ)	.	.	.	.
4r	(16gg#\LL	.	.	.	.
.	16ee\)	.	.	.	.
.	(16ee\	.	.	.	.
.	16bb\JJ)	.	.	.	.
=12	=12	=12	=12	=12	=12
*	*^	*	*	*	*
8dn 8B 8A 8Fn\	2.bb/	8r	.	2.r	.	.
4d 4B 4A 4F\	.	(>16aa\LL	.	.	.	.
.	.	16bb\JJ)	.	.	.	.
.	.	(>16bb\LL	.	.	.	.
.	.	16aa\)	.	.	.	.
8dL 8B 8A 8F\	.	(>16aa\	.	.	.	.
.	.	16ddd\JJ)	.	.	.	.
8d 8B 8A 8F\	.	(>16ddd\LL	.	.	.	.
.	.	16aa\)	.	.	.	.
8dJ 8B 8A 8F\	.	(>16aa\	.	.	.	.
.	.	16aaa\JJ)	.	.	.	.
*	*v	*v	*	*	*	*
=13	=13	=13	=13	=13	=13
8eL 8B 8G# 8E\	8ggg#L 8eee 8bb\	.	2.r	.	.
16r	16r	.	.	.	.
16B\Jk	16bb\Jk	.	.	.	.
4.e 4.E\	4.eee 4.ee\	.	.	.	.
8A 8AA\	16r	.	.	.	.
.	16aa 16a\	.	.	.	.
!!LO:LB:g=original
=14	=14	=14	=14	=14	=14
8G#L 8GG#\	16r	.	2.r	.	.
.	16gg#LL 16g#\	.	.	.	.
8c# 8C#\	16r	.	.	.	.
.	16ccc# 16cc#\	.	.	.	.
8B 8BB\	16r	.	.	.	.
.	16bb 16b\	.	.	.	.
8G# 8GG#\	16r	.	.	.	.
.	16gg# 16g#\	.	.	.	.
8E 8EE\	16r	.	.	.	.
.	16ee 16e\	.	.	.	.
8D#XJ 8DD#X\	16r	.	.	.	.
.	16dd#XJJ 16d#X\	.	.	.	.
=15	=15	=15	=15	=15	=15
8Dn\L	16r	.	2.r	.	.
.	16dddnLL 16ddn\	.	.	.	.
8A\	16r	.	.	.	.
.	16aaa 16aa\	.	.	.	.
8G#\	16r	.	.	.	.
.	16ggg# 16gg#\	.	.	.	.
8E\	16r	.	.	.	.
.	16eee 16ee\	.	.	.	.
8D\	16r	.	.	.	.
.	16ddd 16dd\	.	.	.	.
8BB\J	16r	.	.	.	.
.	16bbJJ 16b\	.	.	.	.
=16	=16	=16	=16	=16	=16
8GG#/L	16r	.	2.r	.	.
.	16gg#LL 16g#\	.	.	.	.
8F#/	16r	.	.	.	.
.	16fff# 16ff#\	.	.	.	.
8E/	16r	.	.	.	.
.	16eee 16ee\	.	.	.	.
8D/	16r	.	.	.	.
.	16ddd 16dd\	.	.	.	.
8BB/	16r	.	.	.	.
.	16bb 16b\	.	.	.	.
8GG#/J	16r	.	.	.	.
.	16gg#JJ 16g#\	.	.	.	.
=17	=17	=17	=17	=17	=17
8EE/	8ee 8e/	.	4r	.	.
8eL 8E\	8eeL 8e/	.	.	.	.
8d#X 8E\	8ffn 8fn/	.	4r	.	.
8dn 8E\	8ff#X 8f#X/	.	.	.	.
8c# 8E\	8ggn 8gn/	.	8r	.	.
16dJk 16B 16E\	16gg#XJk 16ee 16dd 16g#X/	.	16r	.	.
16r;	16r;	.	16r;	.	.
!!LO:PB:g=original
=18	=18	=18	=18	=18	=18
2.r	2.r	.	4r	.	.
.	.	.	4r	.	.
.	.	.	8r	.	.
!	!	!	!LO:TX:t=P:problem:up bow symbol inverted:global	!	!
.	.	.	(8eev\	.	.
=19	=19	=19	=19	=19	=19
!	!	!LO:DY:rj	!	!	!
4AA 4AAA\	8e< 8c#< 8A< 8E</	f	16eee\)LL	.	.
.	.	.	16r	.	.
!	!	!	!LO:MO:mod=*null:null	!	!
*	*	*	*Xtuplet	*	*
!	!	!	!LO:MO:mod=*Xbrackettup:null	!	!
*	*	*	*null	*	*
.	4e< 4c#< 4A< 4E</	.	(24ccc#u\	.	.
.	.	.	24eee\	.	.
.	.	.	24ccc#\JJ	.	.
4r	.	.	8.aa^\L)	.	.
.	8e< 8c#< 8A< 8E</	.	.	.	.
.	.	.	(16ee\Jk	.	.
8r	8e<L 8c#< 8A< 8E</	.	16.aa\LL)	.	.
.	.	.	(32ee\K	.	.
8EE\	8e<J 8d< 8G#< 8E</	.	16.bb\)	.	.
.	.	.	(32ee\JJk	.	.
=20	=20	=20	=20	=20	=20
4AA 4AAA\	8e< 8c#< 8A< 8E</	.	16ccc#\)	.	.
.	.	.	16r	.	.
*	*	*	*tuplet	*	*
!	!	!	!LO:TUP:a	!	!
.	4e< 4c#< 4A< 4E</	.	(24ccc#\LL	.	.
.	.	.	24eee\	.	.
.	.	.	24ccc#\JJ	.	.
4r	.	.	8.aa^\L)	.	.
.	8e< 8c#< 8A< 8E</	.	.	.	.
!	!	!	!LO:SIC:s=(16eeJk	!	!
.	.	.	((16ee\Jk	.	.
8r	8e<L 8c#< 8A< 8E</	.	16.aa\LL)	.	.
.	.	.	(32ee\K	.	.
!	!	!	!LO:SIC:s=16.bb)	!	!
8EE\	8e<J 8d< 8G#< 8E</	.	16.bb\))	.	.
.	.	.	(32ee\JJk	.	.
=21	=21	=21	=21	=21	=21
!	!LO:TX:t=P:problem:mixed beam	!	!	!	!
8AAL 8AAA\	8e<L 8c#< 8A< 8E</	.	16ccc#\)	.	.
.	.	.	16r	.	.
!	!	!	!LO:MO:mod=*null:null	!	!
*	*	*	*Xtuplet	*	*
(8AA\J	(<8A\J	p	(24ccc#^<v\LL	.	.
.	.	.	24eee\	.	.
.	.	.	24ccc#\JJ)	.	.
8C#\L)	8c#\L)	.	(24aa^<\LL	.	.
.	.	.	24ccc#\	.	.
.	.	.	24aa\)	.	.
8EJ 8C#'\	8eJ 8c#'\	.	(24ee^<\	.	.
.	.	.	24aa\	.	.
.	.	.	24ee\JJ)	.	.
!	!	!	!LO:SIC:s=24cc#`LL	!	!
8AL 8E'\	8aL 8e'\	.	24cc#\LL	.	.
.	.	.	(24ff#\	.	.
.	.	.	24ee\	.	.
8c#J 8A'\	8cc#J 8a'\	.	24dd\	.	.
.	.	.	24cc#\	.	.
.	.	.	24b\JJ	.	.
!!LO:LB:g=original
=22	=22	=22	=22	=22	=22
!	!	!	!LO:TX:b:t=P:problem:koniec łuku na dole	!	!
8e 8c#\	8ee 8cc#\	.	24a/LL)	.	.
!	!	!	!LO:SIC:s=((>24cc#u^	!	!
.	.	.	((>24cc#u/	.	.
.	.	.	24b/	.	.
8r	8r	.	24a/	.	.
.	.	.	24g#/	.	.
.	.	.	24f#/JJ	.	.
*clefG2	*	*	*	*	*
8a 8e 8c#/	8aa 8ee 8cc#\	.	24e/LL)	.	.
.	.	.	(>24f#v/	.	.
.	.	.	24e/	.	.
8r	8r	.	24d/	.	.
.	.	.	24c#/	.	.
.	.	.	24B/JJ	.	.
8cc# 8a 8e/	8ccc# 8aa 8ee\	.	8A/L	.	.
8r	8r	.	16eeJk 16a 16e/))	.	.
.	.	.	16r	.	.
*clefF4	*	*	*	*	*
=23	=23	=23	=23	=23	=23
[2.G# [2.BB\	[2.b [2.e [2.B/	p	(8B/L	.	.
.	.	.	8eeJ 8b 8g#/	.	.
.	.	.	8bbb\L)	.	.
!	!	!	!LO:SIC:s=(16aaa'vL	!	!
.	.	.	(16aaa'\L	.	.
.	.	.	16ggg#'\JJ	.	.
.	.	.	16fff#'\LL	.	.
.	.	.	16eee'\	.	.
.	.	.	16ddd#X'\	.	.
.	.	.	16ccc#'\JJ	.	.
=24	=24	=24	=24	=24	=24
2G#] 2BB\]	2b] 2e] 2B/]	.	16bb'\LL	.	.
.	.	.	16aa#X'\	.	.
.	.	.	16aan'\	.	.
.	.	.	16gg#'\JJ	.	.
.	.	.	16ff#'\LL	.	.
.	.	.	16ee'\	.	.
.	.	.	16dd#X'\	.	.
.	.	.	16cc#'\JJ	.	.
4B 4G#\	4ee 4b 4e/	.	16b'\LL	.	.
.	.	.	16a#X'\	.	.
.	.	.	16an'\	.	.
.	.	.	16g#'\JJ	.	.
=25	=25	=25	=25	=25	=25
.	.	.	(16qqf#/LL	.	.
.	.	.	16qqg#/JJ	.	.
2c# 2A\	2f# 2e/	.	32f#\LLL))	.	.
.	.	.	16r	.	.
.	.	.	((32e#Xu\	.	.
.	.	.	32f#\)	.	.
.	.	.	16r	.	.
.	.	.	(32g#\JJJ	.	.
.	.	.	32a\LLL)	.	.
.	.	.	16r	.	.
.	.	.	(32b#X\	.	.
.	.	.	32cc#\)	.	.
.	.	.	16r	.	.
.	.	.	(32ee#X\JJJ	1	.
4A 4F#\	4aa 4ee 4a\	.	32ff#\LLL)	2	.
.	.	.	16r	.	.
!	!	!	!LO:SIC:s=(32aa\	!	!
.	.	.	32aa\	1	.
!	!	!	!LO:SIC:s=32ddd#X\))	!	!
.	.	.	32ddd#X\)	.	.
.	.	.	16r	.	.
.	.	.	(32ccc#v\JJJ	.	.
!!LO:LB:g=original
=26	=26	=26	=26	=26	=26
*	*^	*	*	*	*
4r	4r	[2B^\	.	(16bbT\LL	.	.
.	.	.	.	16aa\	.	.
.	.	.	.	16.ff#\))	.	.
.	.	.	.	32dd#X^\JJk	.	.
!	!	!	!LO:MO:mod=!null:null	!	!	!
!	!LO:S:s=2:note:problem:note-level slur	!	!LO:DY:a	!	!	!
8r	(4a (>4d#X/	.	p	(4ff#\	.	.
8BB\L	.	.	.	.	.	.
8E\J	8g# 8e/))	8B\]	.	16ee\)	.	.
.	.	.	.	16r	.	.
*	*	*	*	*	*below	*
8r	8r	8ryy	.	(8eev\	0	.
*	*v	*v	*	*	*	*
=27	=27	=27	=27	=27	=27
4AA 4AAA\	8e< 8c#< 8A< 8E</	f	8eee\L)	.	.
.	4e< 4c#< 4A< 4E</	.	(24ccc#u\L	.	.
.	.	.	24eee\	.	.
.	.	.	24ccc#\JJ	.	.
4r	.	.	8.aa^\L)	.	.
.	8e< 8c#< 8A< 8E</	.	.	.	.
!	!	!	!LO:SIC:s=(16eeJk	!	!
.	.	.	((16ee\Jk	.	.
8r	8e<L 8c#< 8A< 8E</	.	16.aa\LL)	.	.
.	.	.	(32ee\K	.	.
!	!	!	!LO:SIC:s=16.bb)	!	!
8EE\	8e<J 8d< 8G#< 8E</	.	16.bb\))	.	.
.	.	.	(32ee\JJk	.	.
=28	=28	=28	=28	=28	=28
4AA 4AAA\	8e< 8c#< 8A< 8E</	.	16ccc#\)	.	.
.	.	.	16r	.	.
.	4e< 4c#< 4A< 4E</	.	(24ccc#u\LL	.	.
.	.	.	24eee\	.	.
.	.	.	24ccc#\JJ	.	.
4r	.	.	8.aa^\L)	.	.
.	8e< 8c#< 8A< 8E</	.	.	.	.
.	.	.	(16ee\Jk	.	.
8r	8e<L 8c#< 8A< 8E</	.	16.aa\LL)	.	.
.	.	.	(32ee\K	.	.
8EE\	8e<J 8d< 8G#< 8E</	.	16.bb\)	.	.
.	.	.	(32ee\JJk	.	.
=29	=29	=29	=29	=29	=29
!	!LO:TX:t=P:problem:mixed beam	!	!	!	!
8AAL 8AAA\	8e<L 8c#< 8A< 8E</	.	16ccc#\)	.	.
.	.	.	16r	.	.
!	!	!	!LO:SIC:s=(24ccc#^<vLL	!	!
(8AA\J	(8A\J	p	(24ccc#^\LL	.	.
.	.	.	24eee\	.	.
.	.	.	24ccc#\JJ)	.	.
!	!	!	!LO:SIC:s=(24aa^<LL	!	!
8C#\L)	8c#\L)	.	(24aa\LL	.	.
.	.	.	24ccc#\	.	.
.	.	.	24aa\)	.	.
!	!	!	!LO:SIC:s=(24ee^<	!	!
8EJ 8C#'\	8eJ 8c#'\	.	(24ee\	.	.
.	.	.	24aa\	.	.
.	.	.	24ee\JJ)	.	.
!	!	!	!LO:SIC:s=24cc#`LL	!	!
8AL 8E'\	8aL 8e'\	.	24cc#\LL	.	.
.	.	.	(24ff#\	.	.
.	.	.	24ee\	.	.
8c#J 8A'\	8cc#J 8a'\	.	24dd\	.	.
.	.	.	24cc#\	.	.
.	.	.	24b\JJ	.	.
!!LO:LB:g=original
=30	=30	=30	=30	=30	=30
8e 8c#\	8ee 8cc#\	.	24a/LL)	.	.
.	.	.	((>24cc#^u/	.	.
.	.	.	24b/	.	.
8r	8r	.	24a/	.	.
.	.	.	24g#/	.	.
.	.	.	24f#/JJ	.	.
*clefG2	*	*	*	*	*
8a 8e 8c#/	8aa 8ee 8cc#\	.	24e/LL)	.	.
.	.	.	(>24f#v/	.	.
.	.	.	24e/	.	.
8r	8r	.	24d/	.	.
.	.	.	24c#/	.	.
.	.	.	24B/JJ	.	.
8cc# 8a 8e/	8ccc# 8aa 8ee\	.	8A/L	.	.
8r	8r	.	16eeJk 16a 16e/))	.	.
.	.	.	16r	.	.
*clefF4	*	*	*	*	*
=31	=31	=31	=31	=31	=31
[2.G# [2.BB\	[2.b [2.e [2.B/	p	(8B/L	.	f
.	.	.	8eeJ 8b 8g#/	.	.
.	.	.	8bbb\L)	.	.
.	.	.	(16aaa'v\L	.	.
.	.	.	16ggg#'\JJ	.	.
.	.	.	16fff#'\LL	.	.
.	.	.	16eee'\	.	.
.	.	.	16ddd#X'\	.	.
.	.	.	16ccc#'\JJ	.	.
=32	=32	=32	=32	=32	=32
2G#] 2BB\]	2b] 2e] 2B/]	.	16bb'\LL	.	.
.	.	.	16aa#X'\	.	.
.	.	.	16aan'\	.	.
.	.	.	16gg#'\JJ	.	.
.	.	.	16ff#'\LL	.	.
.	.	.	16ee'\	.	.
.	.	.	16dd#X'\	.	.
.	.	.	16cc#'\JJ	.	.
4B 4G#\	4ee 4b 4e/	.	16b'\LL	.	.
.	.	.	16a#X'\	.	.
.	.	.	16an'\	.	.
.	.	.	16g#'\JJ	.	.
=33	=33	=33	=33	=33	=33
.	.	.	(16qqf#/LL	.	.
.	.	.	16qqg#/JJ	.	.
2c# 2A\	2f# 2e/	.	32f#'\LLL))	.	.
.	.	.	16r	.	.
!	!	!	!LO:SIC:s=((32e#Xu	!	!
.	.	.	((32e#X\	.	.
.	.	.	32f#\)	.	.
.	.	.	16r	.	.
.	.	.	(32g#\JJJ	.	.
.	.	.	32a\LLL)	.	.
.	.	.	16r	.	.
.	.	.	(32b#X\	.	.
.	.	.	32cc#\)	.	.
.	.	.	16r	.	.
.	.	.	(32ee#X\JJJ	.	.
4A 4F#\	4aa 4ee 4a\	.	32ff#\LLL)	.	.
.	.	.	16r	.	.
.	.	.	(32aa\	.	.
.	.	.	32ddd#X\))	.	.
.	.	.	16r	.	.
.	.	.	(32ccc#\JJJ	.	.
=34	=34	=34	=34	=34	=34
*	*^	*	*	*	*
4r	4r	[2B\	.	(16bbT\LL	.	.
.	.	.	.	16aa\	.	.
.	.	.	.	16.ff#\))	.	.
!	!	!	!	!LO:SIC:s=32dd#X^JJk	!	!
.	.	.	.	32dd#X\JJk	.	.
!	!LO:S:s=2:note:problem:note-level slur	!	!	!	!	!
8r	(4a (>4d#X/	.	.	(4ff#\	.	.
8BB\L	.	.	.	.	.	.
8E\J	8g# 8e/))	8B\]	.	16ee\)	.	.
.	.	.	.	16r	.	.
8r	8r	8ryy	.	(8ee#Xv\	.	.
*	*v	*v	*	*	*	*
!!LO:PB:g=original
=35	=35	=35	=35	=35	=35
!	!	!LO:MO:mod=!null:null	!	!	!
!	!	!LO:DY:b=2	!	!	!
2.D\	8r<	p	16ff#\)	.	.
.	.	.	16r	.	.
.	4f#< 4B< 4F#</	.	[8ff#^<u\	.	.
.	.	.	32ff#\LLL]	.	.
.	.	.	16r	.	.
.	.	.	((32a#X\	.	<
.	8f#< 8B< 8F#</	.	32b\)	.	.
.	.	.	16r	.	.
.	.	.	(32cc#\JJJ	.	.
.	8f#<L 8B< 8F#</	.	32dd\LLL)	.	.
.	.	.	16r	.	.
.	.	.	(32ee#X\	.	.
.	8f#<J 8B< 8F#</	.	32ff#\)	.	.
.	.	.	16r	.	.
!	!	!	!	!	!LO:MO:mod=.
.	.	.	(32aa#X\JJJ	.	[[
=36	=36	=36	=36	=36	=36
2.BB\	8r<	.	32bb\LLL)	.	.
.	.	.	16r	.	.
.	.	.	(32ccc#\	.	.
.	4f#< 4d< 4F#</	.	32ddd\)	.	.
.	.	.	16r	.	.
.	.	.	(32eee#X\JJJ	.	.
!	!	!	!	!	!LO:MO:mod=[
.	.	.	32fff#\LLL)	.	>
.	.	.	16r	.	.
!	!	!	!	!	!LO:MO:null:mod=>
.	.	.	(32ccc#\	.	.
.	8f#< 8d< 8F#</	.	32ddd\)	.	.
.	.	.	16r	.	.
.	.	.	(32aa#X\JJJ	.	.
.	8f#<L 8d< 8F#</	.	32bb\LLL)	.	.
.	.	.	16r	.	.
.	.	.	(32ff#\	.	.
.	8f#<J 8d< 8F#</	.	32bb\)	.	.
.	.	.	16r	.	.
.	.	.	32aan\JJJ)	.	]]
=37	=37	=37	=37	=37	=37
(4d\	8r	.	(16gg#t\LL	.	<
.	.	.	16ff#\	.	.
.	8g# 8e'/	.	16gg#\)	.	.
.	.	.	16ee`\JJ	.	.
4c#\	8r	.	(16aaT\LL	.	.
.	.	.	16gg#\	.	.
.	8a 8e'/	.	16aa\)	.	.
.	.	.	16ee`\JJ	.	.
4G#\)	8r	.	(16bbT\LL	.	.
.	.	.	16aa#X\	.	.
.	8b 8e'/	.	16bb\)	.	.
.	.	.	16ee`\JJ	.	[
=38	=38	=38	=38	=38	=38
.	.	.	(16qqccc#/LL	.	.
.	.	.	16qqddd/JJ	.	.
((8A\L	(8cc#L (8e/	.	(16ccc#\LL)	.	.
.	.	.	16bb\	.	.
8c#\J)	8ee/J)	.	16ccc#\	.	.
.	.	.	16eee\JJ)	.	.
!LO:SIC:s=8e'\L)	!	!	!	!	!
8e\L)	8gg#L 8g#'/)	.	(8bb\L	.	.
16E\L	16e/L	.	[8eev\J)	0	.
16E\JJ	16e/JJ	.	.	.	.
8E\	8e/	.	8ee\L]	.	.
8r	8r	.	(8ee#X\J	.	.
!!LO:LB:g=original
=39	=39	=39	=39	=39	=39
2.D\	8r<	.	16ff#\)	.	.
.	.	.	16r	.	.
.	4f#< 4B< 4F#</	.	[8ff#^<u\	.	.
.	.	.	32ff#\LLL]	.	p
.	.	.	16r	.	.
.	.	.	((32a#X\	.	.
.	8f#< 8B< 8F#</	.	32b\)	.	.
.	.	.	16r	.	.
.	.	.	(32cc#\JJJ	.	<
.	8f#<L 8B< 8F#</	.	32dd\LLL)	.	.
.	.	.	16r	.	.
.	.	.	(32ee#X\	.	.
.	8f#<J 8B< 8F#</	.	32ff#\)	.	.
.	.	.	16r	.	.
.	.	.	(32aa#X\JJJ	.	.
=40	=40	=40	=40	=40	=40
2.BB\	8r<	.	32bb\LLL)	.	.
.	.	.	16r	.	.
.	.	.	(32ccc#\	.	.
.	4f#< 4d< 4F#</	.	32ddd\)	.	.
.	.	.	16r	.	.
!	!	!	!	!	!LO:MO:mod=.
.	.	.	(32eee#X\JJJ	.	[
!	!	!	!	!	!LO:MO:null:mod=[
.	.	.	32fff#\LLL)	.	.
.	.	.	16r	.	.
.	.	.	(32ccc#\	.	>
.	8f#< 8d< 8F#</	.	32ddd\)	.	.
.	.	.	16r	.	.
.	.	.	(32aa#X\JJJ	.	.
.	8f#<L 8d< 8F#</	.	32bb\LLL)	.	.
.	.	.	16r	.	.
.	.	.	(32ff#\	.	.
.	8f#<J 8d< 8F#</	.	32bb\)	.	.
.	.	.	16r	.	.
.	.	.	32aan'\JJJ)	.	]]
=41	=41	=41	=41	=41	=41
(4d\	8r	<	(16gg#t\LL	.	<
.	.	.	16ff#\	.	.
.	8g# 8e'/	.	16gg#\)	.	.
.	.	.	16ee`\JJ	.	.
4c#\	8r	.	(16aaT\LL	.	.
.	.	.	16gg#\	.	.
.	8a 8e'/	.	16aa\)	.	.
.	.	.	16ee`\JJ	.	.
4G#\)	8r	.	(16bbT\LL	.	.
.	.	.	16aa#X\	.	.
.	8b 8e'/	[[	16bb\)	.	.
.	.	.	16ee`\JJ	.	[[
=42	=42	=42	=42	=42	=42
4A\	8r	.	(16ccc#t\LL	.	.
.	.	.	16bb\	.	.
.	8cc# 8e/	.	16ccc#\)	.	.
.	.	.	16ee`\JJ	.	.
4B 4F#\	8r	.	(16ddd#Xt\LL	.	.
.	.	.	16ccc#\	.	.
.	8dd#X 8a\	.	16ddd#\)	.	.
.	.	.	16ee`\JJ	.	.
!	!	!LO:MO:mod=.	!	!	!
8B 8E\	8ee 8g#\	f	((8eee\L	.	.
8r	8r	.	8ee\J)	.	.
!!LO:LB:g=original
=43	=43	=43	=43	=43	=43
!	!	!LO:MO:null:mod=f	!	!	!
4AA 4AAA\	8e< 8c#< 8A< 8E</	.	16eeee\)	.	.
.	.	.	16r	.	.
.	4e< 4c#< 4A< 4E</	.	(24ccc#u\LL	.	.
.	.	.	24eee\	.	.
.	.	.	24ccc#\JJ	.	.
4r	.	.	8.aa^\L)	.	.
.	8e< 8c#< 8A< 8E</	.	.	.	.
!	!	!	!LO:SIC:s=(16eeJk	!	!
.	.	.	((16ee\Jk	.	.
8r	8e<L 8c#< 8A< 8E</	.	16.aa\LL)	.	.
.	.	.	(32ee\K	.	.
!	!	!	!LO:SIC:s=16.bb)	!	!
8EE\	8e<J 8d< 8G#< 8E</	.	16.bb\))	.	.
.	.	.	(32ee\JJk	.	.
=44	=44	=44	=44	=44	=44
4AA 4AAA\	8e< 8c#< 8A< 8E</	.	16ccc#\)	.	.
.	.	.	16r	.	.
!	!	!	!LO:SIC:s=(24ccc#uLL	!	!
.	4e< 4c#< 4A< 4E</	.	(24ccc#\LL	.	.
.	.	.	24eee\	.	.
.	.	.	24ccc#\JJ	.	.
!	!	!	!LO:SIC:s=8.aa^L)	!	!
4r	.	.	8.aa\L)	.	.
.	8e< 8c#< 8A< 8E</	.	.	.	.
.	.	.	(16ee\Jk	.	.
8r	8e<L 8c#< 8A< 8E</	.	16.aa\LL)	.	.
.	.	.	(32ee\K	.	.
8EE\	8e<J 8d< 8G#< 8E</	.	16.bb\)	.	.
.	.	.	(32ee\JJk	.	.
=45	=45	=45	=45	=45	=45
!	!LO:TX:t=P:problem:mixed beam	!	!	!	!
8AAL 8AAA\	8e<L 8c#< 8A< 8E</	.	16ccc#\)	.	.
.	.	.	16r	.	.
!	!	!	!LO:SIC:s=(24ccc#^<vLL	!	!
(8AA\J	(8A\J	p	(24ccc#^\LL	.	.
.	.	.	24eee\	.	.
.	.	.	24ccc#\JJ)	.	.
8C#\L)	8c#\L)	.	(24aa\LL	.	.
.	.	.	24ccc#\	.	.
.	.	.	24aa\)	.	.
8EJ 8C#'\	8eJ 8c#'\	.	(24ee\	.	.
.	.	.	24aa\	.	.
.	.	.	24ee\JJ)	.	.
8AL 8E'\	8aL 8e'\	.	24cc#`\LL	.	.
.	.	.	(24ff#\	.	.
.	.	.	24ee\	.	.
8c#J 8A'\	8cc#J 8a'\	.	24dd\	.	.
.	.	.	24cc#\	.	.
.	.	.	24b\JJ	.	.
=46	=46	=46	=46	=46	=46
8e 8c#\	8ee 8cc#\	.	24a/LL)	.	.
!	!	!	!LO:SIC:s=((>24cc#^u	!	!
.	.	.	((>24cc#^/	.	.
.	.	.	24b/	.	.
8r	8r	.	24a/	.	.
.	.	.	24g#/	.	.
.	.	.	24f#/JJ	.	.
*clefG2	*	*	*	*	*
8a 8e 8c#/	8aa 8ee 8cc#\	.	24e/LL)	.	.
.	.	.	(>24f#v/	.	.
.	.	.	24e/	.	.
8r	8r	.	24d/	.	.
.	.	.	24c#/	.	.
.	.	.	24B/JJ	.	.
8cc# 8a 8e/	8ccc# 8aa 8ee\	.	8A/L	.	.
8r	8r	.	16eeJk 16a 16e/))	.	.
.	.	.	16r	.	.
*clefF4	*	*	*	*	*
!!LO:LB:g=original
=47	=47	=47	=47	=47	=47
2.A 2.D\	[2.ff# [2.a [2.f#\	.	(8d\L	.	.
.	.	.	8ff#J 8a\	.	.
.	.	.	8aaa\L)	.	.
.	.	.	(16ggg#'v\L	.	.
.	.	.	16fff#'\JJ	.	.
.	.	.	16eee'\LL	.	.
.	.	.	16ddd'\	.	.
.	.	.	16ccc#'\	.	.
.	.	.	16bb'\JJ	.	.
=48	=48	=48	=48	=48	=48
*ped	*	*	*	*	*
4BB^/	4ff#] 4a] 4f#\]	.	16aa'\LL	.	.
.	.	.	16gg#'\	.	.
.	.	.	16ff#'\	.	.
.	.	.	16ee#X'\JJ	.	.
2f# 2d 2A\	2aa 2dd 2a\	.	16gg#'\LL	.	.
.	.	.	16ff#'\	.	.
.	.	.	16een'\	.	.
.	.	.	16dd'\JJ	.	.
.	.	.	16cc#'\LL	.	.
.	.	.	16b'\	.	.
.	.	.	16a'\	.	.
.	.	.	16f#'\JJ	.	.
=49	=49	=49	=49	=49	=49
2.c# 2.A 2.E\	2.ee 2.a 2.e/	p	32e'\LLL)	.	.
.	.	.	16r	.	.
.	.	.	((32g#u\	.	.
.	.	.	32a\)	.	.
.	.	.	16r	.	.
.	.	.	(32b#X\JJJ	.	.
.	.	.	32cc#\LLL)	.	.
.	.	.	16r	.	.
*	*	*	*	*Xbelow	*
.	.	.	(32dd#X\	1	.
.	.	.	32ee\)	.	.
.	.	.	16r	.	.
.	.	.	(32gg#\JJJ	4	.
.	.	.	32aa\LLL)	0 4	.
.	.	.	16r	.	.
.	.	.	(32bb#X\	.	.
.	.	.	32ccc#\))	.	.
.	.	.	16r	.	.
.	.	.	(32fff#\JJJ	.	.
=50	=50	=50	=50	=50	=50
*	*^	*	*	*	*
4r	4r	[2e\	.	(16eee\LL	.	.
.	.	.	.	16ddd\	.	.
.	.	.	.	16ff#\))	.	.
.	.	.	.	32r	.	.
.	.	.	.	32gg#`\JJk	.	.
8r	4dd 4g#/	.	.	(4bb\	.	.
8E'\L	.	.	.	.	.	.
8A'\J	8cc# 8a/	8e\]	.	8aa\)	.	.
8r	8r	8ryy	.	8r	.	.
*	*v	*v	*	*	*	*
!!LO:PB:g=original
=51|!	=51|!	=51|!	=51|!	=51|!	=51|!
!!!OMD: Piu Mod.to ed Grandioso.
!!!OMD-mod: Piu Moderato ed Grandioso
!!!key: E
*k[f#c#g#d#]	*k[f#c#g#d#]	*	*k[f#c#g#d#]	*	*
4E 4BB 4EE/	4g# 4e 4B 4G#/	f	(8.gg#L 8.b\	.	f
.	.	.	16bbJk 16gg#'\)	.	.
4r	4r	.	(4.eee (4.gg#\	.	.
8B 8E 8GG#\	8ee 8b 8e\	.	.	.	.
8r	8r	.	16gg# 16b\))	.	.
.	.	.	16r	.	.
=52	=52	=52	=52	=52	=52
4F# 4AA/	4cc# 4f# 4e 4c#/	.	8ff#L 8a\	.	.
.	.	.	(>8qff# 8qa/	.	.
.	.	.	8aaJ 8cc#^\)	.	.
4r	4r	.	8gg#L 8b^\	.	.
.	.	.	8ff# 8a^\	.	.
8.BL 8.BB\	8.bbL 8.b\	.	8ee 8g#^\	.	.
.	.	.	8dd#J 8f#^\	.	.
16BJk 16BB\	16bbJk 16b\	.	.	.	.
=53	=53	=53	=53	=53	=53
4B 4G# 4E\	4gg# 4ee 4b 4g#\	.	8eeL 8b 8e 8G#\	.	.
.	.	.	16r	.	.
!	!	!	!LO:TX:t=sul G.:dur=29qs:ext=ud:problem:text with extention lines	!	!
.	.	.	(16Bu\Jk	.	.
*	*	*	*tuplet	*	*
!	!	!	!LO:TUP:a:problem:klamra łukowa	!	!
4r	4r	.	12e^\L	.	.
.	.	.	12g#^\	.	.
.	.	.	12b^\J)	.	.
4r	4r	.	(8eev\L	4	.
.	.	.	16r	.	.
.	.	.	16cc#'\Jk)	.	.
=54	=54	=54	=54	=54	=54
4r	4r	.	2b\	.	.
4r	4r	.	.	.	.
(4D#X\	4f# [4B/	.	(4aT/	.	.
.	.	.	16qqg#/LL	.	.
.	.	.	16qqb/	.	.
.	.	.	16qqa/JJ)	.	.
=55	=55	=55	=55	=55	=55
4E\)	4g# 4B/]	.	2g#/	.	.
4r	4r	.	.	.	.
(4BB#X/	4d# [4G#/	.	(4f#T/	.	.
.	.	.	16qqe/LL	.	.
.	.	.	16qqg#/	.	.
.	.	.	16qqf#/JJ)	.	.
=56	=56	=56	=56	=56	=56
4C#/)	4e 4G#/]	.	2e/	.	.
4r	4r	.	.	.	.
(4GG#\	4B#X< [4G#< 4F#</	.	(4d#t/	.	.
.	.	.	16qqc#/LL	.	.
.	.	.	16qqe/	.	.
.	.	.	16qqd#/JJ)	.	.
!!LO:LB:g=original
=57	=57	=57	=57	=57	=57
4C#\)	4c#< 4G#<] 4E</	.	(4c#/	1	.
4r	4r<	.	8d#/L)	1	.
.	.	.	(8e^/	.	.
4r	4r<	.	8f#^/	.	.
!	!	!	!LO:SIC:s=8g#^/J)	!	!
.	.	.	8g#^/J	.	.
=58	=58	=58	=58	=58	=58
!	!	!	!LO:SIC:s=(4.f#/	!	!
8D# 8FF#\	8f#< 8B< 8F#</	.	(4.f#/)	3	.
4D# 4FF#^\	4f#< 4B< 4F#<^/	.	.	.	.
8D# 8FF#\	8f#< 8B< 8F#</	.	8d#/)	2	.
.	.	.	(16qqd#/LL	.	.
.	.	.	16qqf#/JJ	.	.
8C#L 8FF#\	8f#<L 8A#X< 8F#</	.	(16e/LL)	.	.
.	.	.	16d#/	.	.
8C#J 8FF#\	8f#<J 8A#< 8F#</	.	16e/)	.	.
.	.	.	16c#`/JJ	.	.
=59	=59	=59	=59	=59	=59
.	.	.	(8qc#/	.	.
16D# 16FF#\	16f#< 16B</	.	16f#/)	.	.
16r	16r<	.	16r	.	.
4D# 4FF#^\	4f#< 4B<^/	.	(4f#^/	.	.
8D# 8FF#\	8f#< 8B</	.	8d#/)	.	.
.	.	.	(16qqd#/LL	.	.
.	.	.	16qqf#/JJ	.	.
8C#L 8FF#\	8f#<L 8A#X< 8F#</	.	(16e/LL)	.	.
.	.	.	16d#/	.	.
8C#J 8FF#\	8f#<J 8A#< 8F#</	.	16e/)	.	.
.	.	.	16c#`/JJ	.	.
=60	=60	=60	=60	=60	=60
4D# 4DD#\	4f#< 4B< 4F#</	.	(8f#/L	.	.
.	.	.	8b^/J)	.	.
4E 4EE\	4g# 4B 4G#/	.	8a#X^/L	.	.
.	.	.	8g#^/	.	.
4C# 4CC#\	4gg# 4cc# 4g#\	.	8f#^/	.	.
.	.	.	8e^/J	.	.
=61	=61	=61	=61	=61	=61
*^	*	*	*	*	*
*ped	*	*	*	*	*	*
!	!	!	!	!LO:TX:b:i:t=du talon.	!	!
8.d#/L	2B 2F#^\	8.dd#L 8.b\	.	16d#/LL	.	.
.	.	.	.	16f#/	.	.
.	.	.	.	16e/	.	.
16e/Jk	.	16eeJk 16cc#\	.	32g#/JJk	.	.
.	.	.	.	32r	.	.
4f#/	.	4ff# 4dd#\	.	4d#/	.	.
4F# 4FF#\	4ryy	4f#< 4e< 4A#X</	.	(4c#T/	.	.
.	.	.	.	16qqB/LL	.	.
.	.	.	.	16qqd#/	.	.
.	.	.	.	16qqc#/JJ)	.	.
*v	*v	*	*	*	*	*
=62	=62	=62	=62	=62	=62
8BB 8BBB\	8f#< 8d#< 8B< 8F#</	.	8B/	.	.
4C#^\	4c#<^/	.	8r	.	.
.	.	.	4r	.	.
8AA\	8A</	.	.	.	.
8FF#\L	8F#</L	.	4r	.	.
8BB\J	8B</J	.	.	.	.
!!LO:LB:g=original
=63	=63	=63	=63	=63	=63
8EE\	8E</	.	(8.gg#L 8.b\	.	.
8r	8r	.	.	.	.
.	.	.	16bbJk 16gg#'\)	.	.
8.G#L 8.E\	8.gg#L 8.g#\	f	(4.eee (4.gg#^\	.	.
16B\Jk	16bbJk 16b\	.	.	.	.
8e\	8eee 8ee\	.	.	.	.
8r	8r	.	16gg# 16b\))	.	.
.	.	.	16r	.	.
=64	=64	=64	=64	=64	=64
4F# 4AA\	4cc# 4f# 4e 4c#/	.	8ff#L 8a\	.	.
!	!	!	!LO:SIC:s=(>8qff# 8qa/	!	!
.	.	.	(8qff# 8qa/	.	.
.	.	.	8aaJ 8cc#^\)	.	.
4r	4r	.	8gg#L 8b^\	.	.
.	.	.	8ff# 8a^\	.	.
8.BL 8.BB\	8.bbL 8.b\	.	8ee 8g#^\	.	.
.	.	.	8dd#J 8f#^\	.	.
16BJk 16BB\	16bbJk 16b\	.	.	.	.
=65	=65	=65	=65	=65	=65
4B 4G# 4E\	4gg# 4ee 4b 4g#\	.	8eeL 8b 8e 8G#\	.	.
.	.	.	16r	.	.
!	!	!	!LO:TX:t=sul G.:dur=18qs:ext=ud:problem:text with extention lines	!	!
.	.	.	(16Bu\Jk	.	.
!	!	!	!LO:TUP:a:problem:klamra łukowa	!	!
!	!	!	!LO:SIC:s=12e^L\	!	!
4r	4r	.	12e\L	.	.
!	!	!	!LO:SIC:s=12g#^\	!	!
.	.	.	12g#\	.	.
!	!	!	!LO:SIC:s=12b^J)\	!	!
.	.	.	12b\J)	.	.
4r	4r	.	(8eev\L	.	.
.	.	.	16r	.	.
!	!	!	!LO:SIC:s=16cc#'Jk)	!	!
.	.	.	16cc#\Jk)	.	.
=66	=66	=66	=66	=66	=66
8.r	4r	.	2b\	.	.
(16BB\	.	.	.	.	.
!LO:TUP:a	!	!	!	!	!
12E\L	4r	.	.	.	.
12G#\	.	.	.	.	.
12B\J	.	.	.	.	.
4d#\)	[4b 4f#/	.	(4aT/	.	.
.	.	.	16qqg#/LL	.	.
.	.	.	16qqb/	.	.
.	.	.	16qqa/JJ)	.	.
=67	=67	=67	=67	=67	=67
8.e\L	4b] 4g#/	.	2g#/	.	.
(16GG#\Jk	.	.	.	.	.
!LO:TUP:a	!	!	!	!	!
12BB\L	4r	.	.	.	.
12E\	.	.	.	.	.
12G#\J	.	.	.	.	.
4B#X\)	[4g# 4d#/	.	(4f#T/	.	.
.	.	.	16qqe/LL	.	.
.	.	.	16qqg#/	.	.
.	.	.	16qqf#/JJ)	.	.
=68	=68	=68	=68	=68	=68
8.c#\L	4g#] 4e/	.	2e/	.	.
!LO:SIC:s=(>16EE\Jk	!	!	!	!	!
(<16EE\Jk	.	.	.	.	.
!LO:TUP:a	!	!	!	!	!
12GG#\L	4r	.	.	.	.
12C#\	.	.	.	.	.
12E\J	.	.	.	.	.
(4F#\)	(4B#X< 4G#</	.	(4d#t/	.	.
.	.	.	16qqc#/LL	.	.
.	.	.	16qqe/	.	.
.	.	.	16qqd#/JJ)	.	.
!!LO:LB:g=original
=69	=69	=69	=69	=69	=69
4E 4C#\)	4c#< 4G#</)	.	(4c#/	.	.
4r	4r	.	8d#/L)	.	.
.	.	.	(8e^/	.	.
4r	4r	.	8f#^/	.	.
.	.	.	8g#^/J)	.	.
=70	=70	=70	=70	=70	=70
*^	*^	*	*	*	*
(4D#/	2.FF#\	2.f#^/	(4B\	.	(4.f#/	.	.
4BB#X/	.	.	4An\	.	.	.	.
.	.	.	.	.	8d#/)	.	.
.	.	.	.	.	(16qqd#/LL	.	.
.	.	.	.	.	16qqf#/JJ	.	.
4C#/)	.	.	4A#X\)	.	(16e/LL)	.	.
.	.	.	.	.	16d#/	.	.
.	.	.	.	.	16e/)	.	.
.	.	.	.	.	16c#`/JJ	.	.
=71	=71	=71	=71	=71	=71	=71	=71
.	.	.	.	.	(8qc#/	.	.
(4D#/	2.FF#\	2.f#^/	(4B\	.	16f#/)	.	.
.	.	.	.	.	16r	.	.
.	.	.	.	.	(4f#^/	.	.
4BB#X/	.	.	4An\	.	.	.	.
.	.	.	.	.	8d#/)	.	.
.	.	.	.	.	(16qqd#/LL	.	.
.	.	.	.	.	16qqf#/JJ	.	.
4C#/)	.	.	4A#X\)	.	(16e/LL)	.	.
.	.	.	.	.	16d#/	.	.
.	.	.	.	.	16e/)	.	.
.	.	.	.	.	16c#`/JJ	.	.
*v	*v	*	*	*	*	*	*
*	*v	*v	*	*	*	*
=72	=72	=72	=72	=72	=72
!	!	!	!LO:TX:t=sul G.:dur=8qs:ext=ud:problem:text with extention lines	!	!
4D# 4DD#\	4f# 4B 4F#</	.	(8f#v/L	.	.
.	.	.	8b^>/J)	.	.
4E 4EE\	4g# 4B 4G#</	.	8a#X^/L	.	.
.	.	.	8g#^/	.	.
4C# 4CC#\	4gg# 4cc# 4g#\	.	8f#^/	.	.
.	.	.	8e^/J	.	.
=73	=73	=73	=73	=73	=73
*^	*	*	*	*	*
8.d#/L	2B 2F#\	8.dd#L 8.b\	.	16d#/LL	.	.
.	.	.	.	16f#/	.	.
.	.	.	.	16e/	.	.
16e/Jk	.	16eeJk 16cc#\	.	32g#/JJk	.	.
.	.	.	.	32r	.	.
8f#/	.	8ff# 8dd#\	.	4d#/	.	.
8r	.	8r	.	.	.	.
4FF#\	4ryy	4f#< 4e< 4A#X< 4F#</	.	(4c#T/	.	.
.	.	.	.	16qqB/LL	.	.
.	.	.	.	16qqd#/	.	.
.	.	.	.	16qqc#/JJ)	.	.
*v	*v	*	*	*	*	*
=74	=74	=74	=74	=74	=74
8BB 8BBB\	8f#<L 8d#< 8B< 8F#</	.	[2B/	.	.
8r	16B</L	.	.	.	.
.	16B</JJ	.	.	.	.
4r	8B</L	>	.	.	.
.	8B</J	.	.	.	.
4r	8B</	]	16B/]	.	.
.	.	.	16r	.	.
.	8r<	.	(8bv\	.	p
!!LO:PB:g=original
=75	=75	=75	=75	=75	=75
4r	8a 8d# 8B/	p	8aa\L)	4 0	.
!	!	!	!LO:MO:mod=*null:null	!	!
*	*	*	*Xtuplet	*	*
.	4a 4d# 4B/	.	(24ff#\L	.	.
.	.	.	24aa\	.	.
.	.	.	24ff#\JJ	.	.
4r	.	.	8.dd#^\L)	.	.
.	8a 8d# 8B/	.	.	.	.
.	.	.	(16b\Jk	.	.
8r	8aL 8d# 8B/	.	16.dd#\LL)	.	.
.	.	.	(32b\K	.	.
8BB/	8g#J 8dn/	.	16.ee#X\)	.	.
.	.	.	(32b\JJk	.	.
=76	=76	=76	=76	=76	=76
8B\	8a 8d#X/	.	16ff#\)	3	.
.	.	.	16r	.	.
8r	4a 4d# 4B/	.	(24ff#u\LL	.	.
.	.	.	24aa\	.	.
.	.	.	24ff#\JJ	.	.
!	!	!	!LO:SIC:s=8.dd#^L)	!	!
4r	.	.	8.dd#\L)	.	.
.	8a 8d# 8B/	.	.	.	.
!	!	!	!LO:SIC:s=(16bJk	!	!
.	.	.	((16b\Jk	.	.
8r	8aL 8d# 8B/	.	16.dd#\LL)	.	.
.	.	.	(32b\K	.	.
*clefG2	*	*	*	*	*
!	!	!	!LO:SIC:s=16.ee#X)	!	!
8b\	8g#J 8dn 8B/	.	16.ee#X\))	.	.
.	.	.	((32bu\JJk	.	.
=77	=77	=77	=77	=77	=77
8bb\	8a 8d#X 8B/	.	8ff#\L)	.	.
8r	8r	.	16b\L)	.	.
.	.	.	(16cc#'v\JJ	.	.
4r	4r	.	16dd#'\LL	.	.
.	.	.	16ee'\	.	.
.	.	.	16ff#'\	.	.
.	.	.	16gg#'\JJ	.	.
4r	4r	.	16aa'\LL	.	.
.	.	.	16bb'\	.	.
.	.	.	16ccc#'\	.	.
.	.	.	16bb'\JJ	.	.
=78	=78	=78	=78	=78	=78
2.r	2.r	.	16aa'\LL	.	.
.	.	.	16ff#'\	.	.
.	.	.	16dd#'\	3	.
.	.	.	16b'\JJ	.	.
*	*	*	*	*below	*
.	.	.	16a'/LL	0	.
.	.	.	16f#'/	.	.
.	.	.	16d#'/	.	.
.	.	.	16c#'/JJ	.	.
.	.	.	(8B\L	.	.
.	.	.	16bbJk 16dd# 16f#\))	.	.
!	!	!LO:MO:mod=.	!	!	!
.	.	f	16r	.	.
*clefF4	*	*	*	*	*
=79	=79	=79	=79	=79	=79
!	!	!LO:MO:mod=!null:null	!	!	!
!	!	!LO:DY:b=2	!	!	!
16E 16EE/	16gg# 16ee 16b 16g#\	f	16gg# 16b 16e\	.	.
16r	16r	.	16r	.	.
8r	4g# 4e 4B/	p	(24gg#u\LL	.	.
.	.	.	24bb\	.	.
.	.	.	24gg#\JJ	.	.
4r	.	.	8.ee\L)	.	.
.	8g# 8e 8B/	.	.	.	.
.	.	.	(16b\Jk	.	.
8r	8g#L 8e 8B/	.	16.ee\LL)	.	.
.	.	.	(32b\K	.	.
!	!	!LO:DY:b=2	!	!	!
8BB/	8aJ 8d# 8B/	p	16.ff#\)	.	.
.	.	.	(32b\JJk	.	.
!!LO:LB:g=original
=80	=80	=80	=80	=80	=80
8E\	8g# 8e 8B/	.	16gg#\)	.	.
.	.	.	16r	.	.
8r	4g# 4e 4B/	.	(24gg#u\LL	.	.
.	.	.	24bb\	.	.
.	.	.	24gg#\JJ	.	.
4r	.	.	8.ee\L)	.	.
.	8g# 8e 8B/	.	.	.	.
!	!	!	!LO:SIC:s=(16bvJk	!	!
.	.	.	((16bv\Jk	.	.
8r	8g#L 8e 8B/	.	16.ee\LL)	.	.
.	.	.	(32b\K	.	.
*clefG2	*	*	*	*	*
!	!	!	!LO:SIC:s=16.ff#)	!	!
8b\	8aJ 8d# 8B/	.	16.ff#\))	.	.
.	.	.	(32bu\JJk	.	.
=81	=81	=81	=81	=81	=81
8ee\	8g# 8e 8B/	.	8gg#\L	.	.
8r	8r	.	16aa\L)	.	.
.	.	.	(16bb'v\JJ	.	.
4r	4r	.	16ccc#'\LL	.	.
.	.	.	16ddd#'\	.	.
.	.	.	16eee'\	.	.
.	.	.	16fff#'\JJ	.	.
4r	4r	.	16ggg#'\LL	.	.
.	.	.	16fff#'\	.	.
.	.	.	16eee'\	.	.
.	.	.	16ccc#'\JJ	.	.
=82	=82	=82	=82	=82	=82
2.r	2.r	.	16bb'\LL	.	.
.	.	.	16gg#'\	.	.
.	.	.	16ff#'\	.	.
.	.	.	16ee'\JJ	.	.
.	.	.	16cc#'\LL	.	.
.	.	.	16b'\	.	.
.	.	.	16g#'\	.	.
.	.	.	16f#'\JJ)	.	.
.	.	.	(8e\L	.	.
.	.	.	16gg#Jk 16b\)	.	.
.	.	.	16r	.	.
*clefF4	*	*	*	*	*
=83	=83	=83	=83	=83	=83
!	!	!	!	!	!LO:DY:rj
8F# 8FF#/	8ff# 8ee 8a#X 8f#\	f	16ff# 16ee 16f#u\	.	f
.	.	.	16r	.	.
8r	4f# 4e 4A#X/	p	(24ccc#u\LL	.	.
.	.	.	24eee\	.	.
.	.	.	24ccc#\JJ	.	.
4r	.	.	8.aa#X^\L)	.	.
.	8f# 8e 8A#/	.	.	.	.
.	.	.	(16ff#\Jk	.	.
8r	8f# 8e 8A#/	.	16.aa#\LL)	.	.
.	.	.	(32ff#\K	.	.
!	!	!LO:DY:b=2	!	!	!
8FF#/	8f# 8d# 8An/	p	16.bb#X\)	.	.
.	.	.	(32ff#\JJk	.	.
!!LO:LB:g=original
=84	=84	=84	=84	=84	=84
8F#\	8f# 8e 8A#X/	.	16ccc#\)	.	.
.	.	.	16r	.	.
4e 4A#X 4F#\	8r	.	(24ccc#\LL	.	.
.	.	.	24eee\	.	.
.	.	.	24ccc#\JJ	.	.
!	!	!	!LO:SIC:s=8.aa#X^L)	!	!
.	4r	.	8.aa#X\L)	.	.
8e 8A# 8F#\	.	.	.	.	.
!	!	!	!LO:SIC:s=(16ff#\Jk	!	!
.	.	.	((16ff#\Jk	.	.
8eL 8A# 8F#\	8r	.	16.aa#\LL)	.	.
.	.	.	(32ff#\K	.	.
!	!	!	!LO:SIC:s=16.bb#X\)	!	!
8d#J 8An 8F#\	8ff#\	.	16.bb#X\))	.	.
.	.	.	(32ff#\JJk	.	.
=85	=85	=85	=85	=85	=85
8e 8A#X 8F#\	8fff#\	.	16ccc#\)	.	.
.	.	.	16r	.	.
8r	8r	.	16a#X\LL	.	.
.	.	.	16b\JJ	.	.
!	!	!	!LO:TX:b:t=cresc.-:problem:dynamics with extention lines	!	!LO:HP:t=cresc.
4r	4r	.	16cc#\LL	.	<
.	.	.	16dd#\	.	.
.	.	.	16ee\	.	.
.	.	.	16ff#\JJ	.	.
4r	4r	.	16gg#\LL	.	.
.	.	.	16aa#X\	.	.
.	.	.	16bb\	.	.
.	.	.	16ccc#\JJ	.	.
=86	=86	=86	=86	=86	=86
*	*	*^	*	*	*
*	*	*	*	*8va	*	*
8r	8r<	.	.	16ddd#\LL	.	.
.	.	.	.	16eee\	.	.
8F#\	8f#</	.	.	16fff#\	.	.
.	.	.	.	16ggg#\JJ	.	.
!	!	!	!LO:HP:b=2	!	!	!
8E\L	8e</L	<	<	16aaa#X\LL	.	.
.	.	.	.	16bbb\	.	.
8C#\J	8c#</J	.	.	16cccc#\	.	.
.	.	.	.	16dddd#\JJ	.	.
8AA#X\L	8A#X</L	.	.	(8.eeee\L	.	.
8FF#\J	8F#</J	[[	[	.	.	.
*	*	*	*	*X8va	*	*
.	.	.	.	16aa#X\Jk)	.	.
*	*	*v	*v	*	*	*
=87	=87	=87	=87	=87	=87
!	!	!	!	!	!LO:MO:null:mod=[
8BB 8BBB\	8B</	.	16bb\	.	.
!	!	!	!	!	!LO:MO:mod=.
.	.	.	16r	.	[ f
!	!	!	!	!	!LO:MO:null:mod=f
8r	8r<	.	(16bbLL 16bu\	.	.
.	.	.	16cccnJJ 16ccn\)	.	.
4r	4r<	.	(16cccLL 16cc\	.	.
.	.	.	16bb 16b\)	.	.
.	.	.	(16bb 16b\	.	.
.	.	.	16ddd#JJ 16dd#\)	.	.
4r	4r<	.	(32ddd#LLL 32dd#\	.	.
.	.	.	32bb 32b\)	.	.
.	.	.	16r	.	.
.	.	.	(32bb 32b\	.	.
.	.	.	32fff#JJJ 32ff#\)	.	.
.	.	.	16r	.	.
!!LO:LB:g=original
=88	=88	=88	=88	=88	=88
8r	8r	.	[2.fff# [2.ff#\	.	.
4A 4F# 4E 4Cn\	(16e/LL	f	.	.	.
.	16f#/JJ)	.	.	.	.
.	(16f#/LL	.	.	.	.
.	16e/)	.	.	.	.
8A 8F# 8E 8C\	(16e/	.	.	.	.
.	16a/JJ)	.	.	.	.
8AL 8F# 8E 8C\	(16a/LL	.	.	.	.
.	16e/)	.	.	.	.
8AJ 8F# 8E 8C\	(16e/	.	.	.	.
.	16ee/JJ)	.	.	.	.
=89	=89	=89	=89	=89	=89
8A 8F# 8BB\	8dd# 8a 8d#/	.	16fff#] 16ff#\]	.	.
.	.	.	16r	.	.
8r	8r	.	(16bbLL 16bu\	.	.
.	.	.	16cccnJJ 16ccn\)	.	.
4r	4r	.	(16cccLL 16cc\	.	.
.	.	.	16bb 16b\)	.	.
.	.	.	(16bb 16b\	.	.
.	.	.	16ddd#JJ 16dd#\)	.	.
4r	4r	.	(16ddd#LL 16dd#\	.	.
.	.	.	16bb 16b\)	.	.
.	.	.	(16bb 16b\	.	.
.	.	.	32aaaJJk 32aa\)	.	.
.	.	.	32r	.	.
=90	=90	=90	=90	=90	=90
8r	8r	.	[2.aaa [2.aa\	.	.
4A 4F# 4E 4Cn\	(16e/LL	f	.	.	.
.	16f#/JJ)	.	.	.	.
.	(16f#/LL	.	.	.	.
.	16e/)	.	.	.	.
8A 8F# 8E 8C\	(16e/	.	.	.	.
.	16a/JJ)	.	.	.	.
8AL 8F# 8E 8C\	(16a/LL	.	.	.	.
.	16e/)	.	.	.	.
8AJ 8F# 8E 8C\	(16e/	.	.	.	.
.	32ee/JJk)	.	.	.	.
.	32r	.	.	.	.
=91	=91	=91	=91	=91	=91
8A 8F# 8BB\	8dd# 8a 8d#/	.	16aaa] 16aa\]	.	.
.	.	.	16r	.	.
8r	8r	.	(16bbLL 16bu\	.	.
.	.	.	16cccnJJ 16ccn\)	.	.
4r	4r	.	(16cccLL 16cc\	.	.
.	.	.	16bb 16b\)	.	.
.	.	.	(16bb 16b\	.	.
.	.	.	16ddd#JJ 16dd#\)	.	.
4r	4r	.	(16ddd#LL (16dd#\	.	.
.	.	.	16bb 16b\)	.	.
.	.	.	(16.bb 16.b\	.	.
.	.	.	32bbbJJk 32bb\))	.	.
!!LO:PB:g=original
=92	=92	=92	=92	=92	=92
2.r	2.r	.	(16bbbLL 16bb\	.	.
.	.	.	16aaa#X 16aa#X\)	.	.
.	.	.	(16aaa# 16aa#\	.	.
.	.	.	16aaanJJ 16aan\)	.	.
.	.	.	(16aaaLL 16aa\	.	.
.	.	.	16ggg# 16gg#\)	.	.
.	.	.	(16ggg# 16gg#\	.	.
.	.	.	16aaaJJ 16aa\)	.	.
.	.	.	(16aaaLL 16aa\	.	.
.	.	.	16ggg# 16gg#\)	.	.
.	.	.	(16ggg# 16gg#\	.	.
.	.	.	16gggnJJ 16ggn\)	.	.
=93	=93	=93	=93	=93	=93
2.r	2.r	.	(16gggnLL 16ggn\	.	.
.	.	.	16fff# 16ff#\)	.	.
.	.	.	(16fff# 16ff#\	.	.
.	.	.	16gggJJ 16gg\)	.	.
.	.	.	(16gggLL 16gg\	.	.
.	.	.	16fff# 16ff#\)	.	.
.	.	.	(16fff# 16ff#\	.	.
.	.	.	16eee#XJJ 16ee#X\)	.	.
.	.	.	(16eee#LL 16ee#\	.	.
.	.	.	16eeen 16een\)	.	.
.	.	.	(16eee 16ee\	.	.
.	.	.	16ddd#XJJ 16dd#X\)	.	.
=94	=94	=94	=94	=94	=94
2.r	2.r	.	(16ddd#LL 16dd#\	.	.
.	.	.	16eee 16ee\)	.	.
.	.	.	(16eee 16ee\	.	.
.	.	.	16ddd#JJ 16dd#\)	.	.
.	.	.	(16ddd#LL 16dd#\	.	.
.	.	.	16eee 16ee\)	.	.
.	.	.	(16eee 16ee\	.	.
!	!	!	!LO:TX:b:i:t=poco rit.	!	!
.	.	.	16ddd#JJ 16dd#\)	.	.
.	.	.	(16ddd#LL 16dd#\	.	.
.	.	.	16eee 16ee\)	.	.
.	.	.	(16eee 16ee\	.	.
.	.	.	16ddd#JJ 16dd#\)	.	.
=95	=95	=95	=95	=95	=95
8r	8r	.	(16ddd#LL 16dd#\	.	.
.	.	.	16eee 16ee\)	.	.
!	!LO:TX:b:i:t=poco ritard.	!	!	!	!
8E 8EE\	8e< 8E</	.	(16eee 16ee\	.	.
!	!LO:TX:b:i:t=cresc.:problem:dynamics with extention lines	!LO:HP:t=cresc.	!	!	!
.	.	<	16ddd#JJ 16dd#\)	.	.
8D#XL 8EE\	8fn<L 8Fn</	.	(16ddd#LL 16dd#\	.	.
.	.	.	16eee 16ee\)	.	.
8DnJ 8EE\	8f#X<J 8F#X</	.	(16eee 16ee\	.	.
.	.	.	16ddd#JJ 16dd#\)	.	.
8C#L 8EE\	8gnL 8Gn/	.	(16ddd#LL 16dd#\	.	.
.	.	.	16eee 16ee\)	.	.
8BBJ 8EE\	8g#XJ 8dn 8G#X/	.	16eee 16ee`\	.	.
.	.	[[	16ee`\JJ	.	.
!!LO:LB:g=original
=96||	=96||	=96||	=96||	=96||	=96||
!!!key: A
*k[f#c#g#]	*k[f#c#g#]	*	*k[f#c#g#]	*	*
4AA 4AAA\	8a 8c# 8A/	f	16eeeev\	.	.
.	.	.	16r	.	.
.	4e< 4c#< 4A< 4E</	.	(24ccc#u\LL	.	.
.	.	.	24eee\	.	.
.	.	.	24ccc#\JJ	.	.
4r	.	.	8.aa^\L)	.	.
.	8e< 8c#< 8A< 8E</	.	.	.	.
.	.	.	(16ee\Jk	.	.
8r	8e<L 8c#< 8A< 8E</	.	16.aa\LL)	.	.
.	.	.	(32ee\K	.	.
8EE\	8e<J 8d< 8G#< 8E</	.	16.bb\)	.	.
.	.	.	(32ee\JJk	.	.
=97	=97	=97	=97	=97	=97
4AA 4AAA\	8e< 8c#< 8A< 8E</	.	16ccc#\)	.	.
.	.	.	16r	.	.
.	4e< 4c#< 4A< 4E</	.	(24ccc#u\LL	.	.
.	.	.	24eee\	.	.
.	.	.	24ccc#\JJ	.	.
4r	.	.	8.aa^\L)	.	.
.	8e< 8c#< 8A< 8E</	.	.	.	.
!	!	!	!LO:SIC:s=(16ee\Jk	!	!
.	.	.	((16ee\Jk	.	.
8r	8e<L 8c#< 8A< 8E</	.	16.aa\LL)	.	.
.	.	.	(32ee\K	.	.
!	!	!	!LO:SIC:s=16.bb\)	!	!
8EE\	8e<J 8d< 8G#< 8E</	.	16.bb\))	.	.
.	.	.	(32ee\JJk	.	.
=98	=98	=98	=98	=98	=98
!	!LO:TX:t=P:problem:mixed beam	!	!	!	!
8AAL 8AAA\	8e<L 8c#< 8A< 8E</	.	16ccc#\)	.	.
.	.	.	16r	.	.
!	!	!	!LO:SIC:s=(24ccc#^<vLL	!	!
(8AA\J	(8A\J	p	(24ccc#^\LL	.	.
.	.	.	24eee\	.	.
.	.	.	24ccc#\JJ)	.	.
!	!	!	!LO:SIC:s=(24aa^LL	!	!
8C#\L)	8c#\L)	.	(24aa\LL	.	.
.	.	.	24ccc#\	.	.
.	.	.	24aa\)	.	.
!	!	!	!LO:SIC:s=(24ee^	!	!
8EJ 8C#'\	8eJ 8c#'\	.	(24ee\	.	.
.	.	.	24aa\	.	.
.	.	.	24ee\JJ)	.	.
8AL 8E'\	8aL 8e'\	.	24cc#`\LL	.	.
.	.	.	(24ff#\	.	.
.	.	.	24ee\	.	.
8c#J 8A'\	8cc#J 8a'\	.	24dd\	.	.
.	.	.	24cc#\	.	.
.	.	.	24b\JJ	.	.
=99	=99	=99	=99	=99	=99
8e 8c#\	8ee 8cc#\	.	24a/LL)	.	.
!	!	!	!LO:SIC:s=((>24cc#u^	!	!
.	.	.	(24cc#/	.	.
.	.	.	24b/	.	.
8r	8r	.	24a/	.	.
.	.	.	24g#/	.	.
.	.	.	24f#/JJ	.	.
*clefG2	*	*	*	*	*
8a 8e 8c#/	8aa 8ee 8cc#\	.	24e/LL)	.	.
!	!	!	!LO:SIC:s=(>24f#v/	!	!
.	.	.	(24f#/	.	.
.	.	.	24e/	.	.
8r	8r	.	24d/	.	.
.	.	.	24c#/	.	.
.	.	.	24B/JJ	.	.
8cc# 8a 8e/	8ccc# 8aa 8ee\	.	8A/L	.	.
!	!	!	!LO:SIC:s=16eeJk 16a 16e/))	!	!
8r	8r	.	16eeJk 16a 16e/)	.	.
.	.	.	16r	.	.
*clefF4	*	*	*	*	*
!!LO:LB:g=original
=100	=100	=100	=100	=100	=100
[2.G# [2.BB\	[2.b [2.e [2.B/	p	(8B\L	.	.
.	.	.	8eeJ 8b 8g#\	.	.
.	.	.	8bbb\L)	0 4	.
.	.	.	(16aaa'v\L	.	.
.	.	.	16ggg#'\JJ	.	.
.	.	.	16fff#'\LL	.	.
.	.	.	16eee'\	.	.
.	.	.	16ddd#X'\	.	.
.	.	.	16ccc#'\JJ	.	.
=101	=101	=101	=101	=101	=101
2G#] 2BB\]	2b] 2e] 2B/]	.	16bb'\LL	.	.
.	.	.	16aa#X'\	.	.
.	.	.	16aan'\	.	.
.	.	.	16gg#'\JJ	.	.
.	.	.	16ff#'\LL	.	.
.	.	.	16ee'\	.	.
.	.	.	16dd#X'\	.	.
.	.	.	16cc#'\JJ	.	.
4B 4G#\	4ee 4b 4e/	.	16b'\LL	.	.
.	.	.	16a#X'\	.	.
.	.	.	16an'\	.	.
.	.	.	16g#'\JJ	.	.
=102	=102	=102	=102	=102	=102
.	.	.	(16qqf#/LL	.	.
.	.	.	16qqg#/JJ	.	.
2c# 2A\	2f# 2e/	.	32f#\LLL))	.	.
.	.	.	16r	.	.
.	.	.	((32e#Xu\	.	.
.	.	.	32f#\)	.	.
.	.	.	16r	.	.
.	.	.	(32g#\JJJ	.	.
.	.	.	32a\LLL)	.	.
.	.	.	16r	.	.
.	.	.	(32b#X\	.	.
.	.	.	32cc#\)	.	.
.	.	.	16r	.	.
.	.	.	(32ee#X\JJJ	.	.
4A 4F#\	4aa 4ee 4a\	.	32ff#\LLL)	.	.
.	.	.	16r	.	.
.	.	.	(32aa\	.	.
.	.	.	32ddd#X\))	.	.
.	.	.	16r	.	.
.	.	.	(32ccc#\JJJ	.	.
=103	=103	=103	=103	=103	=103
*	*^	*	*	*	*
4r	4r	[2B\	.	(16bbT\LL	.	.
.	.	.	.	16aa\	.	.
.	.	.	.	16.ff#\))	.	.
.	.	.	.	32dd#X`\JJk	.	.
!	!LO:S:s=2:note:problem:note-level slur	!	!LO:DY:a	!	!	!
8r	(4a (>4d#X/	.	p	(4ff#\	.	.
8BB\L	.	.	.	.	.	.
8E\J	8g# 8e/))	8B\]	.	16ee\)	.	.
.	.	.	.	16r	.	.
8r	8r	8ryy	.	(8eev\	.	.
*	*v	*v	*	*	*	*
!!LO:LB:g=original
=104	=104	=104	=104	=104	=104
4AA 4AAA\	8e< 8c#< 8A< 8E</	f	16eee\)	.	.
.	.	.	16r	.	.
.	4e< 4c#< 4A< 4E</	.	(24ccc#u\LL	.	.
.	.	.	24eee\	.	.
.	.	.	24ccc#\JJ	.	.
4r	.	.	8.aa^\L)	.	.
.	8e< 8c#< 8A< 8E</	.	.	.	.
.	.	.	(16ee\Jk	.	.
8r	8e<L 8c#< 8A< 8E</	.	16.aa\LL)	.	.
.	.	.	(32ee\K	.	.
8EE\	8e<J 8d< 8G#< 8E</	.	16.bb\)	.	.
.	.	.	(32ee\JJk	.	.
=105	=105	=105	=105	=105	=105
8AA 8AAA\	8e< 8c#< 8A< 8E</	.	16ccc#\)	.	.
.	.	.	16r	.	.
8r	4gn 4e 4c# 4A^^/	.	(24eeeu\LL	.	.
.	.	.	24gggn\	.	.
.	.	.	24eee\JJ	.	.
4r	.	.	8.ccc#^\L)	.	.
.	8g 8e 8c# 8A/	.	.	.	.
.	.	.	(16aa\Jk	.	.
8r	8gL 8e 8c# 8A/	.	16.ccc#\LL)	.	.
.	.	.	(32aa\K	.	.
8AA\	8f#J 8d#X 8cn 8A/	.	16.ddd#X\)	.	.
.	.	.	(32aa\JJk	.	.
=106	=106	=106	=106	=106	=106
8A\	8gn 8e 8c#X/	.	16eee\LL)	.	.
.	.	.	(16aa\	.	.
8r	8r	.	16bbb\)	.	.
.	.	.	(16aaa'v\JJ	.	.
4r	4r	.	16gggn'\LL	.	.
.	.	.	16fff#'\	.	.
.	.	.	16eee'\	.	.
.	.	.	16ddd'\JJ	.	.
4r	4r	.	16ccc#'\LL	.	.
.	.	.	16bb'\	.	.
.	.	.	16aa'\	.	.
.	.	.	16gg#X'\JJ	.	.
=107	=107	=107	=107	=107	=107
2.r	2.r	.	16bb'\LL	.	.
.	.	.	16aa'\	.	.
.	.	.	16ggn'\	.	.
.	.	.	16ee'\JJ	.	.
.	.	.	16cc#'\LL	.	.
.	.	.	16a'\	.	.
.	.	.	16gn'\	.	.
.	.	.	16e'\JJ	.	.
.	.	.	16c#'\LL	.	.
.	.	.	16B'\	.	.
.	.	.	16A'\)	.	.
.	.	.	(16gu\JJ	.	.
=108	=108	=108	=108	=108	=108
8D 8AA 8DD\	8f# 8d 8A< 8F#</	.	16f#\LL)	.	.
.	.	.	(16d\	.	.
8r	8r	.	16f#\)	.	.
.	.	.	(16a\JJ	.	.
4r	4r	.	16dd\LL)	.	.
.	.	.	(16dd\	.	.
.	.	.	16ff#\)	.	.
.	.	.	(16aa\JJ	.	.
4r	4r	.	16ddd\LL)	.	.
.	.	.	(16ddd\	.	.
.	.	.	16fff#\)	.	.
.	.	.	16aaa\JJ	.	.
!!LO:PB:g=original
=109	=109	=109	=109	=109	=109
4r	4r	.	8dddd\	.	.
!	!	!	!LO:N:n=2:vis=2	!	!
.	.	.	8eeeyy 8aar 8eeru	.	.
!	!	!	!LO:N:n=2:vis=2	!	!
4r	4r	.	8fff#yy 8bbrL 8ff#ru\	.	.
!	!	!	!LO:N:n=2:vis=2	!	!
.	.	.	8ggg#yy 8ccc#rJ 8gg#ru\	.	.
!	!	!	!LO:N:n=2:vis=2	!	!
!	!	!	!LO:TX:t=P:problem:mixed beam	!	!
4Fn 4FFn/	4a 4d#X 4A/	.	8aaayy 8dddrL 8aaru\	.	.
.	.	.	8d#X/J	.	.
=110	=110	=110	=110	=110	=110
8E 8EE/	8cc# 8a 8e 8c#/	.	8eeL 8cc# 8e\	.	.
8r	8r	.	16eeee\Jk	.	.
.	.	.	16r	.	.
4r	8r	.	[4e/	.	.
!	!	!	!LO:MO:mod=!LO&colon;TX&colon;a&colon;i&colon;t=du talon	!	!
!	!	!	!LO:TX:a:t=du talon.	!	!
.	8eee 8ee\	f	.	.	.
8E 8EE/	4r	.	16e/LL]	.	.
.	.	.	16d#X/	.	.
8r	.	.	16e/	.	.
.	.	.	16e#X`/JJ	.	.
=111	=111	=111	=111	=111	=111
!	!	!	!LO:TX:a:t=sul G.:dur=9qe:ext=cd:problem:text with extention lines	!	!
[2.EE\	[2.dn< [2.A< [2.E</	.	16f#/LL	.	.
.	.	.	16e#X/	.	.
.	.	.	16g#/	.	.
.	.	.	16f#/JJ	.	.
!	!LO:MO:mod=!LO&colon;TX&colon;b&colon;i&colon;t=molto rit.:dur=7qe:ext=ud:problem:text with extention lines	!	!LO:MO:mod=!LO&colon;TX&colon;b&colon;i&colon;t=molto rit.:dur=7qe:ext=ud:problem:text with extention lines	!	!
!	!LO:TX:b:t=molto rit.:dur=7qe:ext=ud:problem:text with extention lines	!	!LO:TX:b:t=molto rit.:dur=7qe:ext=ud:problem:text with extention lines	!	!
.	.	.	16en/LL	.	.
.	.	.	16d#X/	.	.
.	.	.	16f#/	.	.
.	.	.	16e/JJ	.	.
.	.	.	16dn/LL	.	.
.	.	.	16c#/	.	.
.	.	.	16e/	.	.
.	.	.	16d/JJ	.	.
=112	=112	=112	=112	=112	=112
2.EE\]	2.d<] 2.A<] 2.E</]	.	16c#/LL	.	.
.	.	.	16B/	.	.
.	.	.	16A#X/	.	.
.	.	.	16B/JJ	.	.
.	.	.	16c#/LL	.	.
.	.	.	16B/	.	.
.	.	.	16d/	.	.
.	.	.	16c#/JJ	.	.
.	.	.	16e/LL	.	.
.	.	.	16d/	.	.
.	.	.	16c#/	.	.
.	.	.	16B/JJ	.	.
!!LO:LB:g=original
=113	=113	=113	=113	=113	=113
*^	*	*	*	*	*
[2E\	4r	4rc<	.	16F##X`/LL	.	.
.	.	.	.	((16G#/	.	.
.	.	.	.	16dd/)	0 3	.
.	.	.	.	32r	.	.
.	.	.	.	32G#v</JJk)	.	.
.	8rGG	(4d< 4G#</	.	(4B/	.	.
.	8EE\L	.	.	.	.	.
8E\]	8AA\J	8c#< 8A</)	.	8A/)	.	.
8rGG	8rF	8re<	.	8r	.	.
*v	*v	*	*	*	*	*
=114	=114	=114	=114	=114	=114
!LO:TX:t=P:problem:mixed beam	!LO:TX:t=P:problem:mixed beam	!	!	!	!
!	!LO:MO:mod=!LO&colon;TX&colon;a&colon;B&colon;t=a Tempo	!	!	!	!
!	!null	!	!	!	!
8.eL 8.c# 8.A\	8.aaL 8.ee 8.cc# 8.a\	ff	2.r	.	.

!	!LO:TX:a:B:t=Tempo.:mod=	!	!	!	!
16AAJk 16AAA/	16A/Jk	.	.	.	.
[4AA [4AAA/	[4A/	.	.	.	.
8AA] 8AAA/]	8A/]	.	.	.	.
8r	8r	.	.	.	.
=115	=115	=115	=115	=115	=115
!LO:TX:t=P:problem:mixed beam	!LO:TX:t=P:problem:mixed beam	!	!	!	!
8.gnL 8.d 8.Gn\	8.bb-XL 8.ggn 8.dd 8.b-X\	.	2.r	.	.
16GGnJk 16GGGn/	16Gn/Jk	.	.	.	.
[4GG [4GGG/	[4G/	.	.	.	.
8GG] 8GGG/]	8G/]	.	.	.	.
8r	8r	.	.	.	.
*clefG2	*	*	*	*	*
=116	=116	=116	=116	=116	=116
!	!LO:TX:t=P:problem:mixed beam	!	!	!	!
8.b-XL 8.gn 8.cn/	8.cccnL 8.ggn 8.ee 8.ccn\	.	2.r	.	.
*clefF4	*	*	*	*	*
16CnJk 16CCn/	16cn/Jk	.	.	.	.
[4C [4CC/	[4c/	.	.	.	.
8C] 8CC/]	8c/]	.	.	.	.
8r	8r	.	.	.	.
=117	=117	=117	=117	=117	=117
8r	2.r	.	2.r	.	.
!LO:TX:b:i:t=poco rit.	!	!	!	!	!
8Cn/L	.	.	.	.	.
!	!	!LO:HP:t=dim.	!	!	!
8BBn/	.	>	.	.	.
8BB-X/	.	.	.	.	.
8AA/	.	.	.	.	.
8GGn/J	.	.	.	.	.
!!LO:LB:g=original
=118||	=118||	=118||	=118||	=118||	=118||
!!!key: F
*k[b-]	*k[b-]	*	*k[b-]	*	*
!	!LO:TX:a:i:t=meno mosso.	!LO:DY:t=p tranquillo.	!LO:TX:a:i:t=dolce e tranquillo.	!	!
2F 2FF/	2a 2f 2A/	p	([4ccu\	.	.
.	.	.	8cc\L]	.	.
.	.	.	16a\L	.	.
.	.	.	16cc\JJ	.	.
.	.	.	16qqdd/LL	.	.
.	.	.	16qqee/JJ	.	.
4F 4BB-/	4f 4d/	.	8dd\L	.	.
.	.	.	16b-\L	.	.
.	.	.	16dd\JJ)	.	.
=119	=119	=119	=119	=119	=119
2F 2FF/	2a 2f 2A/	.	[4cc\	.	.
.	.	.	8cc\L]	.	.
.	.	.	(16au\L	.	.
*	*	*	*	*Xbelow	*
.	.	.	16cc\JJ	4	.
.	.	.	16qqb-/LL	.	.
.	.	.	16qqcc/JJ	.	.
4F 4BB-/	4f 4d/	.	8b-\L	.	.
.	.	.	(16g\L	.	.
.	.	.	16b-\JJ))	.	.
=120	=120	=120	=120	=120	=120
2A 2C\	2cc 2f 2c/	.	([4a/	.	.
.	.	.	8a/L]	.	.
.	.	.	(16f/L	.	.
.	.	.	16a/JJ	.	.
.	.	.	16qqg/LL	.	.
.	.	.	16qqa/JJ	.	.
4C 4CC/	[4c 4B-/	.	8g/L))	.	.
.	.	.	16c'/L	.	.
.	.	.	16e'/JJ	.	.
=121	=121	=121	=121	=121	=121
*	*^	*	*	*	*
!	!	!	!	!LO:TX:a:i:t=simplice.	!	!
2C 2FF/	2c] 2A/	2ryy	.	(2f/	.	.
*	*	*	*	*	*below	*
4C 4FF/	4e/	8B-\L	.	16g/LL	1	.
.	.	.	.	16a/	.	.
.	.	8A\J	.	16b-/	.	.
.	.	.	.	16cc/JJ)	.	.
=122	=122	=122	=122	=122	=122	=122
2C 2FF/	2f/	(4c\	.	(2a/	.	.
.	.	4A\)	.	.	.	.
4C 4FF/	4e/	(8B-\L	.	16g/LL	.	.
.	.	.	.	16a-X/	.	.
.	.	8G\J)	.	16b-/	.	.
.	.	.	.	16cc/JJ)	.	.
!!LO:LB:g=original
=123	=123	=123	=123	=123	=123	=123
!	!	!LO:SIC:s=(4c	!	!LO:TX:t=sul D.:dur=9qe:ext=cd:problem:text with extention lines	!	!
2C 2FF/	2f/	4c\	.	(2a-X/	.	.
!	!	!LO:SIC:s=4A-X)	!	!	!	!
.	.	4A-X\	.	.	.	.
4E-X 4EE-X/	4g/	(8d-X\L	.	16b-'^\LL	.	.
.	.	.	.	16cc'^\	.	.
.	.	8B-\J)	.	16dd-X'^\	.	.
.	.	.	.	16ee-X'^\JJ	.	.
=124	=124	=124	=124	=124	=124	=124
!	!	!LO:SIC:s=(4e-X	!	!	!	!
2E-X 2AA-X/	2a-X/	4e-X\	.	4.cc\)	.	.
!	!	!LO:SIC:s=4c)	!	!	!	!
.	.	4c\	.	.	.	.
.	.	.	.	(8b-^u\	.	.
*	*	*	*	*tuplet	*	*
[4F 4D-X\	[<4f/	4d-X\	.	12a-X^/L	.	.
.	.	.	.	12b-^/	.	.
.	.	.	.	12g^/J)	.	.
=125	=125	=125	=125	=125	=125	=125
*^	*	*^	*	*	*	*
*	*^	*	*	*	*	*	*	*
*	*	*	*	*	*	*	*	*Xbelow	*
!LO:N:vis=2	!	!LO:N:vis=2	!	!	!	!	!	!	!
2.G/	4F\]	2.C\	2.g/	4f\]	2.c\	.	[2.cc\	2	<
.	(>4En\	.	.	(>4en\	.	.	.	.	.
.	4B-\)	.	.	4b-\)	.	.	.	.	.
*v	*v	*v	*	*	*	*	*	*	*
*	*v	*v	*v	*	*	*	*
=126	=126	=126	=126	=126	=126
2F 2FF/	2a 2f 2A/	.	16cc\]	4	[
!	!	!	!	!	!LO:MO:mod=.
.	.	.	16r	.	>
!	!	!	!LO:TX:a:t=sul A.	!	!LO:MO:null:mod=>
.	.	.	4ccu\	.	.
.	.	.	(16av\LL	.	.
.	.	.	16cc\JJ	.	]
.	.	.	16qqdd/LL	.	.
.	.	.	16qqee/JJ	.	.
4F 4BB-\	4f 4d/	.	8dd\L)	.	.
.	.	.	(16b-u\L	.	.
.	.	.	16dd\JJ	.	.
=127	=127	=127	=127	=127	=127
.	.	.	(16qqcc/LL	.	.
.	.	.	16qqdd/JJ	.	.
!	!	!	!LO:MO:mod=*null:null	!	!
*	*	*	*Xtuplet	*	*
2F 2FF/	2a 2f 2A/	.	(24cc\LL)	.	.
.	.	.	24a\	.	.
.	.	.	24cc\	.	.
.	.	.	24een\	.	.
.	.	.	24ff\	.	.
.	.	.	24aa\JJ)	.	.
.	.	.	8cc\L)	.	.
.	.	.	(16a\L	0	.
.	.	.	16cc\JJ	4	.
.	.	.	16qqb-/LL	.	.
.	.	.	16qqcc/JJ	.	.
4F 4BB-\	4f 4d/	.	8b-\L)	.	.
.	.	.	(16g\L	.	.
.	.	.	16b-\JJ)	.	.
!!LO:PB:g=original
=128	=128	=128	=128	=128	=128
.	.	.	(16qqa/LL	.	.
.	.	.	16qqb-/JJ	.	.
2A 2C\	2cc 2f 2c/	.	(24a\LL)	.	.
.	.	.	24f\	1	.
.	.	.	24a\	0	.
.	.	.	24cc\	1	.
.	.	.	24een\	3	.
.	.	.	24ff\JJ)	4	.
*	*	*	*	*below	*
.	.	.	8a/L	0	.
.	.	.	(16fv/L	1	.
.	.	.	16a/JJ	3	.
.	.	.	(16qqg/LL	.	.
.	.	.	16qqa/JJ	.	.
4C 4CC/	[4c 4B-/	.	8g/L))	.	.
.	.	.	16c`/L	.	.
.	.	.	16e`/JJ	.	.
=129	=129	=129	=129	=129	=129
*	*^	*	*	*	*
(4C 4FF^/	2c] 2A/	2ryy	.	(2f/	.	.
4C 4FF^/	.	.	.	.	.	.
4C 4FF^/)	4e/	8B-\L	.	(16g/LL	.	.
.	.	.	.	16a/	.	.
.	.	8G\J	.	16b-/	.	.
.	.	.	.	16cc/JJ))	.	.
=130	=130	=130	=130	=130	=130	=130
(4C 4FF^/	2f/	(4c\	.	2av/	.	.
4C 4FF^/	.	4A\)	.	.	.	.
*	*	*	*	*	*Xbelow	*
4E 4EE^/)	4g#X/	(8d\L	.	(16bnv\LL	1	.
.	.	.	.	16cc#X\	.	.
.	.	8Bn\J)	.	16dd\	.	.
.	.	.	.	16ee\JJ)	.	.
=131	=131	=131	=131	=131	=131	=131
!	!	!	!LO:HP:b=2	!	!	!
(4E 4AA^/	2a/	(4e\	<	(2.cc#X\	.	<
4E 4AA^/	.	4c#X\)	.	.	.	.
!	!	!	!LO:MO:mod=.	!	!	!
4E 4AA^/)	4r	4r	[[	.	.	.
*	*v	*v	*	*	*	*
=132	=132	=132	=132	=132	=132
!	!	!LO:MO:null:mod=[	!	!	!LO:MO:mod=[
(8FnL 8AA\	4r	.	16ccn\)	.	[ >
.	.	.	16r	.	.
!	!	!LO:HP:b=2	!	!	!
!	!	!LO:MO:null:mod=>	!	!	!LO:MO:mod=p
8C\	.	.	(4cc\	4	] p
!	!	!LO:HP:b=2	!	!	!
!	!	!LO:MO:mod=.	!	!	!
8F#X\	(4e-X/	>	.	.	.
8C\	.	.	8a/)	.	.
.	.	.	16qqa/LL	.	.
.	.	.	16qqb-/JJ	.	.
8G\	4en/)	.	(16b-/LL	.	.
.	.	.	16a/	.	.
8C\J)	.	]	16b-/)	.	.
.	.	.	16g`/JJ	.	.
!!LO:LB:g=original
=133	=133	=133	=133	=133	=133
!	!	!	!LO:TX:t=sul D.:dur=3qe:ext=ud:problem:text with extention lines	!	!
.	.	.	(8qg/	.	.
(8A\L	(4f/	.	16cc\)	.	.
.	.	.	16r	.	.
8C\	.	.	(4cc\	.	.
8F#X\	4e-X/	.	.	.	.
8C\	.	.	8a/)	.	.
.	.	.	(16qqa/LL	.	.
.	.	.	16qqb-/JJ	.	.
8G\	4en/)	.	(16b-/LL)	.	.
.	.	.	16a/	.	.
8C\J)	.	.	16b-/)	.	.
.	.	.	16g`/JJ	.	.
=134	=134	=134	=134	=134	=134
4A\	4f/	.	(8cc\L	.	.
!	!	!	!LO:MO:mod=!LO&colon;TX&colon;t=sul A.:dur=3e:ext=ud:problem:text with extention lines	!	!
!	!	!	!LO:TX:t=A.:dur=3e:ext=ud:problem:text with extention lines	!	!
.	.	.	8ff\J)	.	.
4F 4AA\	(8c/L	.	(8ee^\L	.	.
.	8f/)	.	8dd^\	.	.
!	!	!	!LO:MO:mod=!LO&colon;TX&colon;t=sul D.:dur=4q:ext=ud:problem:text with extention lines	!	!
!	!	!	!LO:TX:t=D.:dur=4q:ext=ud:problem:text with extention lines	!	!
4G 4BB-\	8e/	.	8cc^\	.	.
.	8d/J	.	8b-^\J	.	.
=135	=135	=135	=135	=135	=135
2c 2A 2C\	(8.aaL 8.ff 8.a\	.	(16a\LL	.	.
.	.	.	16cc\)	.	.
.	.	.	(16b-\	.	.
.	16bb-Jk 16b-\	.	16dd\JJ))	.	.
!	!LO:TX:b:i:t=rit.	!	!LO:TX:b:i:t=rit.	!	!
.	8ccc 8cc\)	.	(>(4a/	.	.
.	8r	.	.	.	.
.	.	.	16qqf/LL	.	.
.	.	.	16qqa/JJ	.	.
4C 4CC/	4e 4B-/	.	8.g/L)	.	.
.	.	.	16f/Jk)	.	.
=136	=136	=136	=136	=136	=136
*^	*	*	*	*	*
8A/	8C 8FF\	[2f/	.	[2f/	.	.
4A/	4C 4FF\	.	.	.	.	.
[<8A/	4C 4FF\	.	.	.	.	.
8A/]	.	8f/]	.	8f/]	.	.
8r	8C 8FF\	8r	.	8r	.	.
*v	*v	*	*	*	*	*
=137	=137	=137	=137	=137	=137
!	!LO:MO:mod=!LO&colon;TX&colon;a&colon;B&colon;t=a Tempo	!	!LO:MO:mod=!LO&colon;TX&colon;a&colon;B&colon;t=a Tempo	!	!
!	!null	!	!null	!	!
(4C/	8r	.	[4g/	.	.
!	!LO:TX:a:B:t=Tempo.:mod=	!	!	!	!
.	4e 4c/	.	.	.	.
4G\	.	.	8g/L]	.	.
.	8e 8c/	.	(16e/L	.	.
.	.	.	16g/JJ	.	.
4F\)	8r	.	8a-X/L	.	.
.	8d 8Bn/	.	16f/L	.	.
.	.	.	16a-/JJ)	.	.
!!LO:LB:g=original
=138	=138	=138	=138	=138	=138
4E\	8r	.	[4g/	.	.
.	8g 8c 8G</	.	.	.	.
4C\	8r	.	8g/L]	.	.
.	8e 8c 8G</	.	(<16e/L	.	.
.	.	.	16g/JJ	.	.
4AA-X\	8r	.	8a-X\L)	.	.
.	8f 8c 8F</	.	16bn`\L	.	.
.	.	.	16cc`\JJ	.	.
=139	=139	=139	=139	=139	=139
*^	*^	*	*	*	*
.	.	.	.	.	(8qcc/	.	.
2GG\	2ryy	8r	2ryy	.	([4gg\)	.	.
.	.	4e 4c 4G</	.	.	.	.	.
.	.	.	.	.	16gg\LL]	.	.
.	.	.	.	.	16ee\	.	.
.	.	8e 8c 8G</	.	.	16cc\	.	.
.	.	.	.	.	16a\JJ)	.	.
4G/	4GG\	4f/	(8c\L	.	32bn/KLL	.	.
.	.	.	.	.	32r	.	.
.	.	.	.	.	16a^/	.	.
.	.	.	8Bn\J)	.	16g^/	.	.
.	.	.	.	.	16d^/JJ	.	.
*v	*v	*	*	*	*	*	*
*	*v	*v	*	*	*	*
=140	=140	=140	=140	=140	=140
8C\	8e 8c 8G/	.	(2.e/	.	.
!	!LO:TX:b:t=m.d.	!	!	!	!
8r	[<8G</	.	.	.	.
4r	16G</LL]	.	.	.	.
.	16E</	.	.	.	.
.	16C</	.	.	.	.
.	16AA</JJ	.	.	.	.
16rEE	16BBn</	.	.	.	.
(16AA\LL	16r<	.	.	.	.
16GG\	8r<	.	.	.	.
16EE\JJ	.	.	.	.	.
=141	=141	=141	=141	=141	=141
*	*	*	*	*below	*
8CC\)	8r	.	16g/)	0	.
.	.	.	16r	.	.
8rGG	8e 8c 8G</	.	4gu/	3	.
(4G\	8r	.	.	.	.
.	8e 8c/	.	(16ev</LL	.	.
.	.	.	16g/JJ	.	.
4F\)	8r	.	8a-X/L	.	.
.	8d 8Bn/	.	16f/L	.	.
.	.	.	16a-/JJ)	.	.
=142	=142	=142	=142	=142	=142
(<4E\	8r	.	[4g/	.	.
.	8g 8c 8G</	.	.	.	.
4C\	8r	.	8g/L]	.	.
.	8e 8c 8G</	.	(16e/L	.	.
.	.	.	16g/JJ	.	.
4AA-X\)	8r	.	8a-X/L)	.	.
.	8f 8c 8F</	.	16bn`/L	.	.
.	.	.	16cc`/JJ	.	.
!!LO:LB:g=original
=143	=143	=143	=143	=143	=143
.	.	.	8qcc/	.	.
2D 2AA 2DD\	2f#X 2c 2F#X</	.	([4eee\	.	.
.	.	.	16eee\LL]	.	.
.	.	.	16ddd\)	.	.
.	.	.	16ccc`\	.	.
.	.	.	16aa`\JJ	.	.
4D 4GG\	[4fn 4Bn 4G</	.	16bbn^\LL	.	.
.	.	.	16aa^\	.	.
.	.	.	16gg^\	.	.
.	.	.	16dd^\JJ	.	.
=144	=144	=144	=144	=144	=144
*	*^	*	*	*	*
2.C\	4f/]	2B-X 2G<\	.	(16ff^\LL	.	.
.	.	.	.	16ee^\	.	.
.	.	.	.	16dd^\	.	.
.	.	.	.	16a^\JJ	.	.
.	(4e/	.	.	16dd^\LL	.	.
.	.	.	.	16cc^\	.	.
.	.	.	.	16b-X^\	.	.
.	.	.	.	16f#X^\JJ	.	.
.	[4cc/)	4r	.	16a^/LL	.	.
.	.	.	.	16g^/	.	.
.	.	.	.	16e^/	.	.
.	.	.	.	16c^/JJ	.	.
=145	=145	=145	=145	=145	=145	=145
2A 2FF\	8cc/L]	2ryy	.	16cc\)	.	.
.	.	.	.	16r	.	.
.	(>8ff/	.	.	4ccu\	.	.
.	8ee/	.	.	.	.	.
.	8ee-X/	.	.	(16av\LL	.	.
.	.	.	.	16cc\JJ	.	.
.	.	.	.	(16qqdd/LL	.	.
.	.	.	.	16qqee/JJ	.	.
4B- 4BB-\	8dd/	[4f\	.	8dd\L))	.	.
.	8b-/J	.	.	(16b-u\L	.	.
.	.	.	.	16dd\JJ	.	.
=146	=146	=146	=146	=146	=146	=146
*^	*	*	*	*	*	*
.	.	.	.	.	(16qqcc/LL	.	.
.	.	.	.	.	16qqdd/JJ	.	.
8c/L	2F\	8a/)	8f\]	.	24cc\LL)	.	.
.	.	.	.	.	24a\	.	.
.	.	.	.	.	24cc\	.	.
(8f/	.	8r	8ryy	.	24ee\	.	.
.	.	.	.	.	24ff\	.	.
.	.	.	.	.	24aa\JJ	.	.
8e/	.	4r	4ryy	.	16cc\)	.	.
.	.	.	.	.	16r	.	.
8e-X/	.	.	.	.	(16av\LL	.	.
.	.	.	.	.	16cc\JJ	.	.
.	.	.	.	.	16qqb-/LL	.	.
.	.	.	.	.	16qqcc/JJ	.	.
8d/	4G 4BB-\	4r	4ryy	.	16b-\LL)	.	.
.	.	.	.	.	16r	.	.
8d-X/J	.	.	.	.	(16gu\	.	.
.	.	.	.	.	16b-\JJ	.	.
*v	*v	*	*	*	*	*	*
*	*v	*v	*	*	*	*
!!LO:PB:g=original
=147	=147	=147	=147	=147	=147
.	.	.	(16qqa/LL	.	.
.	.	.	16qqb-/JJ	.	.
8C\L)	2c< 2A</	.	(24a\LL)	.	.
.	.	.	24f\	.	.
.	.	.	24a\	.	.
(<8F\	.	.	24cc\	.	.
.	.	.	24ee\	.	.
.	.	.	24ff\JJ)	.	.
8E\	.	.	8a/L)	.	.
8E-X\	.	.	(16f/L	.	.
.	.	.	16a/JJ	.	.
.	.	.	(16qqg/LL	.	.
.	.	.	16qqa/JJ	.	.
8D\	8Bn<L [<8G</	.	8g/L))	.	.
8C\J	8c<J 8B-X< 8G</]	.	16c`/L	.	.
.	.	.	16e`/JJ	.	.
=148	=148	=148	=148	=148	=148
8FF/)	8f< 8A</	.	2f/	.	.
8r	8f/L	.	.	.	.
4r	8f/	.	.	.	.
.	8f/J	.	.	.	.
4r	8fL 8e-X/	.	(16f/LL	.	.
.	.	.	16g/	.	.
.	8fJ 8e-/	.	16a/	.	.
.	.	.	16cc/JJ)	.	.
=149	=149	=149	=149	=149	=149
16r	8fL 8d/	.	2b-\	.	.
(16B-\LL	.	.	.	.	.
16F\	8f 8d/	.	.	.	.
16D\JJ	.	.	.	.	.
8BB-/)	8f 8d/	.	.	.	.
8r	8fJ 8d/	.	.	.	.
4r	8gL 8f/	.	(16g\LL	.	.
.	.	.	16a\	.	.
.	8gJ 8f/	.	16bn\	.	.
.	.	.	16dd\JJ)	.	.
=150	=150	=150	=150	=150	=150
16r	8gL 8e/	.	2cc\	.	.
(16c\LL	.	.	.	.	.
16G\	8g 8e/	.	.	.	.
16E\JJ	.	.	.	.	.
8C/)	8g 8e/	.	.	.	.
8r	8gJ 8e/	.	.	.	.
*	*	*	*	*Xbelow	*
4c 4B-\	8gL 8e/	.	(16cc\LL	1	.
.	.	.	16dd\	.	.
.	8gJ 8e/	.	16ee\)	0	.
.	.	.	16gg`\JJ	.	.
!!LO:LB:g=original
=151	=151	=151	=151	=151	=151
(8cL 8A\	(8ccL 8f/	.	16ccc\	.	.
.	.	.	16r	.	.
8C\	8c/	.	(4cccu\	.	.
8F#X 8E-X\	8f#X 8e-X/	.	.	.	.
8C\	8c/	.	8aa\)	.	.
.	.	.	(16qqaa/LL	.	.
.	.	.	16qqccc/JJ	.	.
8G 8En\	8g 8en/	.	(16bb-\LL)	.	.
.	.	.	16aa\	.	.
8C\J)	8c/J)	.	16bb-\)	.	.
.	.	.	16gg`\JJ	.	.
=152	=152	=152	=152	=152	=152
.	.	.	8qgg/	.	.
(8AL 8Fn\	(8aL 8fn/	.	16ccc\	.	.
.	.	.	16r	.	.
8C\	8c/	.	(4cccu\	.	.
8A 8F#X\	8a 8f#X/	.	.	.	.
8C\	8c/	.	8aa\)	.	.
.	.	.	(16qqaa/LL	.	.
.	.	.	16qqccc/JJ	.	.
8B- 8G\	8b- 8g/	.	(16bb-\LL)	.	.
.	.	.	16aa\	.	.
8C\J)	8c/J)	.	16bb-\)	.	.
.	.	.	16gg`\JJ	.	.
=153	=153	=153	=153	=153	=153
(8AL 8AA\	8cc 8c/	.	(8cccv\L	3	.
8GJ 8GG\)	8r	.	8eee-X\J)	.	.
4F#X 4FF#X/	(8d/L	.	8ddd^\L	.	.
.	8a/	.	8ccc^\	.	.
4D 4DD/	8dd/	.	8bb-^\	.	.
.	8cc/J)	.	8aa^\J	.	.
=154	=154	=154	=154	=154	=154
*	*^	*	*	*	*
(8GL 8GG/	8b- 8g/	2ryy	.	8bb-\L	.	.
8FnJ 8FFn/)	8r	.	.	8ddd-X\J	.	.
4E 4EE/	(>8c/L	.	.	8ccc^\L	.	.
.	8g/	.	.	8bb-^\	.	.
4C 4CC/	8cc/	4c\	.	8aa^\	.	.
.	8b-/J)	.	.	8gg^\J	.	.
*	*v	*v	*	*	*	*
=155	=155	=155	=155	=155	=155
!	!	!	!LO:TX:a:i:t=très largament.	!	!
4F 4C 4FF/	4a 4f 4c/	.	8aa^<\L	.	.
.	.	.	8fff^<\	.	.
8r	8r	.	8ddd^<\	.	.
8D 8BBn/	8d 8Bn/	.	8bbn^<\	.	.
8FL 8D\	8fL 8d/	.	8aa-X^<\	.	.
8A-XJ 8F\	8a-XJ 8f/	.	8ff^<\J	.	.
!!LO:LB:g=original
=156	=156	=156	=156	=156	=156
8Bn 8A-X 8F\	8bn 8a-X 8f/	.	8dd^/L	.	.
8r	8r	.	8bn^/	.	.
8d 8B 8A-\	8dd 8b 8a-\	.	8a-X^/	.	.
8r	8r	.	8f^/	.	.
8a-X 8f 8d 8B\	8aa-X 8ff 8dd 8b\	.	8d^/	.	.
8r	8r	.	8Bn^/J	.	.
=157	=157	=157	=157	=157	=157
8an 8f 8c\	8ccc 8aan 8ff 8cc\	.	(16c/LL	.	.
.	.	.	16A/)	.	.
8r	8r	.	16B-X/	.	.
.	.	.	16c/JJ	.	.
4r	4r	.	16d/LL	.	.
.	.	.	16en/	.	.
.	.	.	16f/	.	.
.	.	.	16g/JJ	.	.
4r	4r	.	16a\LL	.	.
.	.	.	16b-\	.	.
.	.	.	16cc\	.	.
.	.	.	16ff\JJ	1	.
=158	=158	=158	=158	=158	=158
2.r	2.r	.	16aa\LL	.	.
.	.	.	16ccc\	.	.
.	.	.	16fff\	.	.
.	.	.	16aaa\JJ	.	.
*	*	*	*8va	*	*
.	.	.	16cccc\LL	.	.
.	.	.	16fff\	.	.
.	.	.	16aaa\	.	.
.	.	.	16cccc\JJ	.	.
!	!	!	!LO:TX:t=P:problem:mixed beam	!	!
.	.	.	(8.ffffv\L	.	.
*	*	*	*X8va	*	*
.	.	.	16Bn/Jk)	.	.
=159	=159	=159	=159	=159	=159
!	!	!	!LO:TX:t=sul G du talon.:dur=6q:ext=ud:problem:text with extention lines	!	!
2.r	2.r	.	12cu/L	.	.
.	.	.	12cu/	.	.
.	.	.	12du/J	.	.
.	.	.	12enu/L	.	.
.	.	.	12fu/	.	.
.	.	.	12gu/J	.	.
.	.	.	12au\L	.	.
.	.	.	24ddu\K	.	.
.	.	.	24r	.	.
.	.	.	12ccu\J	.	.
=160	=160	=160	=160	=160	=160
4r	4r	.	12au/L	.	.
.	.	.	12fu/	.	.
.	.	.	12Bnu/J	.	.
4r	4r	.	(12cu/L	.	.
.	.	.	12.e/	.	.
.	.	.	24a/Jk)	.	.
4B- 4C;\	4cc 4e 4c;/	.	(8.a;<v/L	.	.
.	.	.	16g/Jk)	.	.
!!LO:LB:g=original
=161	=161	=161	=161	=161	=161
8A 8C 8FF\	8f/	.	8f`u/L	.	.
8r	(24aa\LL	p	(16aL 16fu/	.	.
.	24ccc\	.	.	.	.
.	.	.	16b-JJ 16g/)	.	.
.	24aa\JJ	.	.	.	.
4r	8.ff\L)	.	(16b-LL 16g\	.	.
.	.	.	16cc 16a\)	.	.
.	.	.	(16cc 16a\	.	.
.	(16cc\Jk	.	16ffJJ 16a\)	.	.
*clefG2	*	*	*	*	*
8fL 8A/	16.ff\LL)	.	(16ffLL 16a\	.	.
.	.	.	16gg 16cc\)	.	.
.	(32cc\K	.	.	.	.
8gJ 8c/	16.gg\)	.	(16.gg 16.cc\	.	.
.	(32cc\JJk	.	32aaJJk 32ff\)	.	.
=162	=162	=162	=162	=162	=162
8a 8f/	8aa\)	.	8aaL 8ff`\	.	.
!	!LO:TUP:b	!	!	!	!
8r	(24a/LL	.	(16aaL 16ff\	.	.
.	24cc/	.	.	.	.
.	.	.	16bb-JJ 16gg\)	.	.
.	24a/JJ	.	.	.	.
4r	8.f/L)	.	(16bb-LL 16gg\	.	.
.	.	.	16ccc 16aa\)	.	.
.	.	.	(16ccc 16aa\	.	.
.	(16c/Jk	.	16fffJJ 16aa\)	.	.
*clefF4	*	*	*	*	*
8FL 8AA\	16.f/LL)	.	(16fffLL 16aa\	.	.
.	.	.	16ggg 16bb-\)	.	.
.	(32c/K	.	.	.	.
8GJ 8C\	16.g/)	.	(16.ggg 16.bb-\	.	.
.	(32c/JJk	.	32aaaJJk 32ccc\)	.	.
=163	=163	=163	=163	=163	=163
8A 8F\	8a 8f/)	.	8aaa 8ccc\	.	.
!	!	!	!LO:SIC:s=(24ggg\LL	!	!
8r	8r	.	24ggg\LL	.	.
.	.	.	24aaa\	.	.
!	!	!	!LO:SIC:s=24ggg\JJ)	!	!
.	.	.	24ggg\JJ	.	.
4r	4r	.	(24fff\LL	.	.
.	.	.	24ggg\	.	.
.	.	.	24fffJ\)	.	.
.	.	.	(24cccL\	.	.
.	.	.	24ddd\	.	.
.	.	.	24ccc\JJ)	.	.
4r	4r	.	(24aa\LL	.	.
.	.	.	24bb-\	.	.
.	.	.	24aa\)	.	.
.	.	.	(24gg\	.	.
.	.	.	24aa\	.	.
.	.	.	24gg\JJ)	.	.
=164	=164	=164	=164	=164	=164
2.r	2.r	.	(24ff\LL	.	.
.	.	.	24gg\	.	.
.	.	.	24ff\)	.	.
.	.	.	(24cc\	.	.
.	.	.	24dd\	.	.
.	.	.	24cc\JJ)	.	.
.	.	.	(24a/LL	.	.
.	.	.	24b-/	.	.
.	.	.	24a/)	.	.
.	.	.	(24f/	.	.
.	.	.	24g/	.	.
.	.	.	24f/JJ)	.	.
.	.	.	(24c/LL	.	.
.	.	.	24d/	.	.
.	.	.	24c/)	.	.
.	.	.	(24A/	.	.
.	.	.	24B-/	.	.
.	.	.	24A/JJ)	.	.
!!LO:LB:g=original
=165	=165	=165	=165	=165	=165
[2.G [2.GG/	[2.b- [2.g [2.d [2.B-/	.	(8G\L	.	.
.	.	.	16bb-L 16b- 16d^\)	.	.
!	!	!	!LO:TX:a:i:t=staccato volant.	!	!
.	.	.	16aa^\JJ	.	.
.	.	.	16gg'^\LL	.	.
.	.	.	16ff#X'^\	.	.
.	.	.	16gg'^\	.	.
.	.	.	16dd'^\JJ	.	.
.	.	.	16b-'^/LL	.	.
.	.	.	16g'^/	.	.
.	.	.	16d'^/	.	.
.	.	.	16c'^/JJ	.	.
=166	=166	=166	=166	=166	=166
2G] 2GG/]	2b-] 2g] 2d] 2B-/]	.	(16B-/LL	.	.
.	.	.	16d/)	.	.
.	.	.	16g/	.	.
.	.	.	16b-/JJ	.	.
.	.	.	16dd\LL	.	.
.	.	.	16gg\	.	.
.	.	.	16bb-\	.	.
.	.	.	16ddd\JJ	.	.
4B- 4BB-\	4dd 4g 4d/	.	16ggg\LL	.	.
.	.	.	16bbb-\	.	.
.	.	.	(16.dddd\	.	.
.	.	.	32ff\JJk)	2	.
=167	=167	=167	=167	=167	=167
[2.C/	8eL 8c'/	.	(24ee^\LL	.	.
.	.	.	24ff\	.	.
.	.	.	24ee\)	.	.
.	8fJ 8d'/	.	(24ddd^\	.	.
.	.	.	24eee\	.	.
.	.	.	24ddd\JJ)	.	.
.	8gL 8e'/	.	(24ee^\LL	.	.
.	.	.	24ff\	.	.
.	.	.	24ee\)	.	.
.	8aJ 8f#X'/	.	(24ccc^\	.	.
.	.	.	24ddd\	.	.
.	.	.	24ccc\JJ)	.	.
.	8b-L 8g'/	.	(24ee^\LL	.	.
.	.	.	24ff\	.	.
.	.	.	24ee\)	.	.
.	8bnJ 8g 8f#'/	.	(24bbn^\	.	.
.	.	.	24ccc\	.	.
.	.	.	24bb\JJ)	.	.
=168	=168	=168	=168	=168	=168
8C/]	8cc 8g 8e/	.	(24ee\LL	0	.
.	.	.	24ff\	.	.
.	.	.	24ee\	.	.
8r	8r	.	24bb-X\)	.	.
.	.	.	(24aa\	.	.
.	.	.	24gg\JJ	.	.
4r	4r	.	24ff\LL	.	.
.	.	.	24ee\	.	.
.	.	.	24gg\J	.	.
.	.	.	24ff\L	.	.
.	.	.	24ee\	.	.
.	.	.	24dd\JJ	.	.
8C 8CC/	4r	.	24cc\LL	.	.
.	.	.	24dd\	.	.
.	.	.	24cc\J	.	.
8r	.	.	24b-\L	.	.
.	.	.	24a\	.	.
.	.	.	24g\JJ	.	.
!!LO:PB:g=original
=169	=169	=169	=169	=169	=169
8C 8FF/	8f 8A/	.	8f/L)	.	.
8r	(24aa\LL	.	(16aL 16fu/	.	.
.	24ccc\	.	.	.	.
.	.	.	16b-JJ 16g/)	.	.
.	24aa\JJ	.	.	.	.
4r	8.ff\L)	.	(16b-LL 16g\	.	.
.	.	.	16cc 16a\)	.	.
.	.	.	(16cc 16a\	.	.
.	(16cc\Jk	.	16ffJJ 16a\)	.	.
*clefG2	*	*	*	*	*
8fL 8A/	16.ff\LL)	.	(16ffLL 16a\	.	.
.	.	.	16gg 16cc\)	.	.
.	(32cc\K	.	.	.	.
8gJ 8c/	16.gg\)	.	(16.gg 16.cc\	.	.
.	(32cc\JJk	.	32aaJJk 32ff\)	.	.
=170	=170	=170	=170	=170	=170
8a 8f/	8aa\)	.	8aaL 8ff\	.	.
!	!LO:TUP:b	!	!	!	!
8r	(24a/LL	.	(16aaL 16ff\	.	.
.	24cc/	.	.	.	.
.	.	.	16bb-JJ 16gg\)	.	.
.	24a/JJ	.	.	.	.
4r	8.f/L)	.	(16bb-LL 16gg\	.	.
.	.	.	16ccc 16aa\)	.	.
.	.	.	(16ccc 16aa\	.	.
.	(16c/Jk	.	16fffJJ 16aa\)	.	.
*clefF4	*	*	*	*	*
8FL 8AA\	16.f/LL)	.	(16fffLL 16aa\	.	.
.	.	.	16ggg 16bb-\)	.	.
.	(32c/K	.	.	.	.
8GJ 8C\	16.g/)	.	(16.ggg 16.bb-\	.	.
.	(32c/JJk	.	32aaaJJk 32ccc\)	.	.
=171	=171	=171	=171	=171	=171
8A 8F\	8a 8f/)	.	8aaaL 8ccc\	.	.
8r	8r	.	(24fff\L	.	.
.	.	.	24ggg\	.	.
.	.	.	24fff\JJ)	.	.
4r	4r	.	(24ddd\LL	.	.
.	.	.	24eee\	.	.
.	.	.	24ddd\J)	.	.
.	.	.	(24aa\L	.	.
.	.	.	24bb-\	.	.
.	.	.	24aa\JJ)	.	.
4r	4r	.	(24ff\LL	.	.
.	.	.	24gg\	.	.
.	.	.	24ff\J)	.	.
.	.	.	(24dd\L	.	.
.	.	.	24ee\	.	.
.	.	.	24dd\JJ)	.	.
=172	=172	=172	=172	=172	=172
2.r	2.r	.	(24a/LL	.	.
.	.	.	24b-/	.	.
.	.	.	24a/J)	.	.
.	.	.	((24f/L	.	.
.	.	.	24g/	.	.
.	.	.	24f/JJ)	.	.
.	.	.	(24d/LL	.	.
.	.	.	24e/	.	.
.	.	.	24d/J)	.	.
.	.	.	(24c/L	.	.
.	.	.	24d/	.	.
.	.	.	24c/JJ)	.	.
.	.	.	(24Bn/LL	.	.
.	.	.	24c/	.	.
.	.	.	24B/J)	.	.
.	.	.	(24A/L	.	.
.	.	.	24B/	.	.
.	.	.	24A/JJ))	.	.
!!LO:LB:g=original
=173	=173	=173	=173	=173	=173
[<2.GG\	[2.g [<2.f [>2.Bn< [>2.G</	.	(8G\L	.	.
.	.	.	16.ffL 16.bn 16.d\)	.	.
!	!	!	!LO:TX:b:i:t=stacc. voltan du milieu.	!	!
.	.	.	(32ee'^\JJk	.	.
.	.	.	16dd'^\LL	.	.
.	.	.	16cc#X'^\	.	.
.	.	.	16ee'^\	.	.
.	.	.	16dd'^\JJ	.	.
.	.	.	16b'^/LL	.	.
.	.	.	16g'^/	.	.
.	.	.	16d'^/	.	.
.	.	.	16c'^/JJ)	.	.
=174	=174	=174	=174	=174	=174
2GG\]	2g] 2f] 2Bn<] 2G</]	.	(16Bn/LL	.	.
.	.	.	16d/)	.	.
*	*	*	*	*below	*
.	.	.	16g/	1	.
!	!	!	!LO:SIC:s=16bn/JJ	!	!
.	.	.	16bn'/JJ	.	.
.	.	.	16dd\LL	.	.
.	.	.	16gg\	.	.
.	.	.	16bbn\	.	.
.	.	.	16ddd\JJ	.	.
8G 8F 8BBn\	8dd 8bn 8g 8f/	.	16ggg\LL	.	.
.	.	.	16bbbn\	.	.
8r	8r	.	(16.dddd\	.	.
.	.	.	32cc\JJk)	.	.
=175	=175	=175	=175	=175	=175
[2.GG\	8Bn<L 8G<'</	.	(24bn\LL	.	.
.	.	.	24cc\	.	.
.	.	.	24b\J)	.	.
.	8c<J 8A<'</	.	(24aa\L	.	.
.	.	.	24bbn\	.	.
.	.	.	24aa\JJ)	.	.
.	8dL 8Bn'/	.	(24b\LL	.	.
.	.	.	24cc\	.	.
.	.	.	24b\J)	.	.
.	8eJ 8c#X'/	.	(24gg\L	.	.
.	.	.	24aa\	.	.
.	.	.	24gg\JJ)	.	.
.	8fnL 8d'/	.	(24b\LL	.	.
.	.	.	24cc\	.	.
.	.	.	24b\J)	.	.
.	8f#XJ 8d 8c#'/	.	(24ff#X\L	.	.
.	.	.	24gg\	.	.
.	.	.	24ff#\JJ)	.	.
=176	=176	=176	=176	=176	=176
8GG/]	8g 8d 8Bn/	.	(24bn\LL	.	.
.	.	.	24cc\	.	.
.	.	.	24b\J	.	.
*	*	*	*	*Xbelow	*
8r	8r	.	24ffn\L)	4	.
.	.	.	(24ee\	0	.
.	.	.	24gg\JJ	.	.
4r	4r	.	24ff\LL	.	.
.	.	.	24ee\	.	.
.	.	.	24dd\J	.	.
.	.	.	24cc\L	.	.
.	.	.	24b\	.	.
.	.	.	24a\JJ	.	.
8GG 8GGG/	4r	.	24g/LL	.	.
.	.	.	24a/	.	.
.	.	.	24g/J	.	.
8r	.	.	24f/L	.	.
.	.	.	24e/	.	.
.	.	.	24d/JJ	.	.
!!LO:LB:g=original
=177	=177	=177	=177	=177	=177
8C 8CC/	8r	.	8c/L)	.	.
8r	(24eee\LL	.	(16eL 16c/	.	.
.	24ggg\	.	.	.	.
.	.	.	16fJJ 16d/)	.	.
.	24eee\JJ)	.	.	.	.
4r	8.ccc\L	.	(16fLL 16d/	.	.
.	.	.	16g 16e/)	.	.
.	.	.	(16g 16e/	.	.
.	(16gg\Jk	.	16ccJJ 16e/)	.	.
*clefG2	*	*	*	*	*
8ccL 8e'\	16.ccc\LL)	.	(16ccLL 16e\	.	.
.	.	.	16dd 16g\)	.	.
.	(32gg\K	.	.	.	.
8ddJ 8g'\	16.ddd\)	.	(16.dd 16.g\	.	.
.	(32gg\JJk	.	32eeJJk 32cc\)	.	.
=178	=178	=178	=178	=178	=178
8ee 8cc\	8eee\)	.	8eeL 8cc\	.	.
8r	(24ee\LL	.	(16eeL 16cc\	.	.
.	24gg\	.	.	.	.
.	.	.	16ffJJ 16dd\)	.	.
.	24ee\JJ	.	.	.	.
4r	8.cc\L)	.	(16ffLL 16dd\	.	.
.	.	.	16gg 16ee\)	.	.
.	.	.	(16gg 16ee\	.	.
.	(16g\Jk	.	16cccJJ 16ee\)	.	.
*clefF4	*	*	*	*	*
8cL 8E'\	16.cc\LL)	.	(16cccLL 16ee\	.	.
.	.	.	16ddd 16ff\)	.	.
.	(32g\K	.	.	.	.
8dJ 8G'\	16.dd\)	.	(16.ddd 16.ff\	.	.
.	32g\JJk	.	32eeeJJk 32gg\)	.	.
=179	=179	=179	=179	=179	=179
8e 8c\	8ee\	.	8eee 8gg\	.	.
8r	8r	.	(24ddd\LL	.	.
.	.	.	24eee\	.	.
.	.	.	24ddd\JJ)	.	.
4r	4r	.	(24ccc\LL	.	.
.	.	.	24ddd\	.	.
.	.	.	24ccc\J)	.	.
.	.	.	(24ggL\	.	.
.	.	.	24aa\	.	.
.	.	.	24gg\JJ)	.	.
4r	4r	.	(24ee\LL	.	.
.	.	.	24ff\	.	.
.	.	.	24ee\J)	.	.
.	.	.	(24dd\L	.	.
.	.	.	24ee\	.	.
.	.	.	24dd\JJ)	.	.
=180	=180	=180	=180	=180	=180
!	!	!LO:HP:b=2	!	!	!
!	!	!LO:MO:mod=!null:null	!	!	!
!	!	!LO:DY:b=2:rj	!LO:TX:b:i:t=poco piu meno.	!	!
2c^\	2.r	sf >	(24cc/LL	.	.
.	.	.	24dd/	.	.
!	!	!LO:DY:b=2	!	!	!
.	.	] p	24cc/J)	.	.
.	.	.	(24g/L	.	.
.	.	.	24a/	.	.
.	.	.	24g/JJ)	.	.
.	.	.	(24e/LL	.	.
.	.	.	24f/	.	.
.	.	.	24e/J)	.	.
.	.	.	(24d/L	.	.
.	.	.	24e/	.	.
.	.	.	24d/JJ)	.	.
4r	.	.	(24c/LL	.	.
.	.	.	24d/	.	.
.	.	.	24c/J)	.	.
.	.	.	(24B-X/L	.	.
.	.	.	24c/	.	.
.	.	.	24B-/JJ)	.	.
!!LO:LB:g=original
=181	=181	=181	=181	=181	=181
*	*^	*	*	*	*
!	!LO:TX:a:i:t=dol.	!	!LO:DY:t=p tranquillo.	!LO:TX:a:i:t=dolce Grazioso.	!	!
!	!	!	!	!LO:SIC:s=(16A\LL	!	!
2A 2F\	[4cc/	2.f\	p	(16A/LL	.	p
!	!	!	!	!LO:SIC:s=16f\	!	!
.	.	.	.	16f/	.	.
!	!	!	!	!LO:SIC:s=16cc\	!	!
.	.	.	.	16cc/	.	.
!	!	!	!	!LO:SIC:s=16ccc\JJ)	!	!
.	.	.	.	16ccc/JJ)	.	.
.	8cc/L]	.	.	(16bbn\LL	.	.
.	.	.	.	16ccc\	.	.
.	(16a/L	.	.	16ddd\)	.	.
.	16cc/JJ	.	.	16ccc`\JJ	.	.
4B-\	8dd/L	.	.	(16bb-X^\LL	.	.
.	.	.	.	16ff\	.	.
.	16b-/L	.	.	16dd\	.	.
.	16dd/JJ)	.	.	16bb-\JJ)	.	.
=182	=182	=182	=182	=182	=182	=182
2c 2F\	[4cc/	[4a [4f\	.	(16aa\LL	.	.
.	.	.	.	16ff\	.	.
.	.	.	.	16cc\	.	.
.	.	.	.	16aaa\JJ	.	.
.	8cc/L]	8a] 8f\]	.	16fff^\LL	.	.
.	.	.	.	16ccc\	.	.
.	(16a/L	8r	.	16aa\	.	.
.	16cc/JJ	.	.	16fff\JJ	.	.
4G 4BB-/	8b-/L	4d\	.	16gg^\LL	.	.
.	.	.	.	16dd\	.	.
.	16g/L	.	.	16b-X\	.	.
.	16b-/JJ)	.	.	16gg\JJ)	.	.
=183	=183	=183	=183	=183	=183	=183
2A 2C\	[4a/	[4f\	.	(16ff\LL	.	.
.	.	.	.	16cc\	.	.
.	.	.	.	16a\	.	.
.	.	.	.	16fff\JJ	.	.
.	8a/L]	8f\]	.	16ccc\LL	.	.
.	.	.	.	16aa\	.	.
.	(16f/L	8r	.	16ff\	.	.
.	16a/JJ	.	.	16ccc\JJ	.	.
4B- 4C\	8g/L	4r	.	16ee^\LL	.	.
.	.	.	.	16cc\	.	.
.	16c/L	.	.	16b-\	.	.
.	16e/JJ)	.	.	16g\JJ)	.	.
*	*v	*v	*	*	*	*
=184	=184	=184	=184	=184	=184
!	!	!	!LO:SIC:s=(16fu/LL	!	!
[2A [2F\	[2f/	.	(16f/LL	.	.
.	.	.	16A/	.	.
.	.	.	16c/	.	.
.	.	.	16f/JJ	.	.
.	.	.	16a\LL	.	.
.	.	.	16cc\	.	.
.	.	.	16ff\)	.	.
.	.	.	(16aav\JJ	.	.
8A] 8F\]	8f/]	.	16ccc^\LL	.	.
.	.	.	16ccc^\	.	.
8r	8r	.	16ccc^\	.	.
.	.	.	16ccc^\JJ)	.	.
=185	=185	=185	=185	=185	=185
!	!	!LO:DY:b=2	!	!	!
2e 2c 2B-X\	4r	p	(16ccc\LL	.	.
!	!	!	!LO:TX:b:i:t=à la position.	!	!
.	.	.	16bb-\	.	.
.	.	.	16ddd\	.	.
.	.	.	16bb-\JJ	.	.
.	4r	.	16aa\LL	.	.
.	.	.	16gg\	.	.
.	.	.	16bb-\	.	.
.	.	.	16gg\JJ	.	.
4C/	(16g/LL	.	16ff\LL	.	.
.	16a/	.	16ee\	.	.
.	16b-/	.	16gg\	.	.
.	16cc/JJ)	.	16ee\JJ)	.	.
!!LO:LB:g=original
=186	=186	=186	=186	=186	=186
[2A [2F\	[2a/	.	(16gg\LL	.	.
.	.	.	16ff\	.	.
.	.	.	16cc\)	.	.
.	.	.	16a`\JJ	.	.
.	.	.	(16ccv\LL	.	.
.	.	.	16ff\	.	.
.	.	.	16aa\	.	.
.	.	.	16ccc\JJ	.	.
8A] 8F\]	8a/]	.	16fff\LL)	.	.
.	.	.	(16fff`\	.	.
8r	8r	.	16fff`\	.	.
.	.	.	16fff`\JJ)	.	.
=187	=187	=187	=187	=187	=187
2g#X 2e 2d\	4r	.	(16eeeu\LL	.	.
.	.	.	16ddd\	.	.
.	.	.	16fff\	.	.
.	.	.	16ddd\JJ	.	.
.	4r	.	16ccc\LL	.	.
.	.	.	16bbn\	.	.
.	.	.	16ddd\	.	.
.	.	.	16bb\JJ	.	.
4E\	(16bn\LL	.	16aa\LL	.	.
.	16cc\	.	16gg#X\	.	.
.	16dd\	.	16bb\	.	.
.	16ee\JJ)	.	16gg#\JJ	.	.
=188	=188	=188	=188	=188	=188
[2.c [2.A\	[2.cc\	.	16bbn\LL	.	.
.	.	.	16aa\	.	.
.	.	.	16ccc\	.	.
.	.	.	16aa\JJ	.	.
.	.	.	16ff\LL	.	.
.	.	.	16ee\	.	.
.	.	.	16aa\	.	.
.	.	.	16ee\JJ	.	.
.	.	.	16dd\LL	.	.
.	.	.	16cc\	.	.
.	.	.	16ee\	.	.
.	.	.	16cc\JJ	.	.
=189	=189	=189	=189	=189	=189
8c] 8A\]	8cc\]	.	16bn/LL)	.	.
.	.	.	(16a/	.	.
8r	8r	.	16cc/	.	.
.	.	.	16a/JJ	.	.
4r	4r	.	16f/LL	.	.
.	.	.	16e/	.	.
.	.	.	16a/	.	.
!	!	!	!LO:TX:b:i:t=rit.	!	!
.	.	.	16e/JJ	.	.
4r	4r	.	16d/LL	.	.
.	.	.	16c/	.	.
.	.	.	16Bn/	.	.
.	.	.	16B-X/JJ)	.	.
!!LO:PB:g=original
=190	=190	=190	=190	=190	=190
*^	*^	*	*	*	*
!	!	!LO:MO:mod=!LO&colon;TX&colon;a&colon;B&colon;t=a Tempo	!	!	!LO:MO:mod=!LO&colon;TX&colon;a&colon;B&colon;t=a Tempo	!	!
!	!	!LO:TX:a:B:t=Tempo.	!	!	!null	!	!
2A/	2.F\	[4cc/	2.f\	.	(16A\LL	.	.
.	.	.	.	.	16f\	.	.
.	.	.	.	.	16cc\	.	.
.	.	.	.	.	16ccc\JJ)	.	.
.	.	8cc/L]	.	.	(16bbn\LL	.	.
.	.	.	.	.	16ccc\	.	.
.	.	(16a/L	.	.	16ddd\)	.	.
!	!	!	!	!	!LO:SIC:s=16ccc`\JJ	!	!
.	.	16cc/JJ	.	.	16ccc^\JJ	.	.
4B-/	.	8dd/L	.	.	(16bb-X^\LL	.	.
.	.	.	.	.	16ff\	.	.
.	.	16b-/L	.	.	16dd\	.	.
.	.	16dd/JJ)	.	.	16bb-\JJ)	.	.
*v	*v	*	*	*	*	*	*
=191	=191	=191	=191	=191	=191	=191
2c 2F\	[4cc/	[4a [4f\	.	(16aa\LL	.	.
.	.	.	.	16ff\	.	.
.	.	.	.	16cc\	.	.
.	.	.	.	16aaa\JJ	.	.
.	8cc/L]	8a] 8f\]	.	16fff^\LL	.	.
.	.	.	.	16ccc\	.	.
.	(16a/L	8r	.	16aa\	.	.
.	16cc/JJ	.	.	16fff\JJ	.	.
4G 4BB-\	8b-/L	4d\	.	16gg^\LL	.	.
.	.	.	.	16dd\	.	.
.	16g/L	.	.	16b-X\	.	.
.	16b-/JJ)	.	.	16gg\JJ)	.	.
=192	=192	=192	=192	=192	=192	=192
(2A 2C\	[4a/	[4f\	.	(16ff\LL	.	.
.	.	.	.	16cc\	.	.
.	.	.	.	16a\	.	.
.	.	.	.	16fff\JJ	.	.
.	8a/L]	8f\]	.	16ccc\LL	.	.
.	.	.	.	16aa\	.	.
.	(16f/L	8r	.	16ff\	.	.
.	16a/JJ	.	.	16ccc\JJ	.	.
4B- 4C\)	8g/L	4r	.	16ee^\LL	0	.
.	.	.	.	16cc\	.	.
.	16c/L	.	.	16b-\	.	.
.	16e/JJ)	.	.	16g\JJ)	.	.
*	*v	*v	*	*	*	*
=193	=193	=193	=193	=193	=193
!	!	!	!LO:SIC:s=(16fu/LL	!	!
[2A [2F\	[2f/	.	(16fu\LL	.	.
!	!	!	!LO:SIC:s=16A/	!	!
.	.	.	16A\	.	.
!	!	!	!LO:SIC:s=16c/	!	!
.	.	.	16c\	.	.
!	!	!	!LO:SIC:s=16f/JJ	!	!
.	.	.	16f\JJ	.	.
.	.	.	16a\LL	.	.
.	.	.	16cc\	.	.
.	.	.	16ff\)	.	.
.	.	.	(16aav\JJ	.	.
!	!	!	!LO:SIC:s=16ccc\^LL	!	!
8A] 8F\]	8f/]	.	16ccc\LL	.	.
!	!	!	!LO:SIC:s=16ccc\^	!	!
.	.	.	16ccc`\	.	.
!	!	!	!LO:SIC:s=16ccc\^	!	!
8r	8r	.	16ccc`\	.	.
!	!	!	!LO:SIC:s=16ccc\^JJ)	!	!
.	.	.	16ccc`\JJ)	.	.
=194	=194	=194	=194	=194	=194
!	!	!LO:DY:b=2	!	!	!
2g#X 2e 2d\	4r	p	(16ccc\LL	.	.
!	!	!	!LO:TX:b:i:t=à la position.	!	!
.	.	.	16bbn\	.	.
.	.	.	16eee\	.	.
.	.	.	16ddd#X\JJ	.	.
.	4r	.	16dddn\LL	.	.
.	.	.	16ccc#X\	.	.
.	.	.	16cccn\	.	.
.	.	.	16bb\JJ	.	.
4E\	(16bn\LL	.	16aa\LL	.	.
.	16cc\	.	16gg#X\	.	.
.	16dd\	.	16ffnt\	.	.
.	16ee\JJ)	.	16ee\JJ)	.	.
!!LO:LB:g=original
=195	=195	=195	=195	=195	=195
[2c [2A\	[2cc\	.	((8ee\	.	.
.	.	.	16a\LL)	.	.
.	.	.	(16aa\JJ	.	.
.	.	.	16bbn\LL))	.	.
.	.	.	(16bn\	.	.
.	.	.	16cc\)	.	.
.	.	.	(16ccc\JJ	.	.
8c] 8A\]	8cc\]	.	16ddd\LL)	.	.
.	.	.	(16dd\	.	.
8r	8r	.	16dd#X\)	.	.
.	.	.	(16ddd#X\JJ	.	.
=196	=196	=196	=196	=196	=196
[2d 2A [2E\	4r	.	16eee\LL)	.	.
.	.	.	(16ee\	.	.
.	.	.	16ff#X\)	.	.
.	.	.	(16fff#X\JJ	.	.
.	8ee\	.	16ggg#X\LL)	.	.
.	.	.	(16gg#X\	.	.
.	8r	.	16aa\)	.	.
.	.	.	(16aaa\JJ	.	.
4d] 4G#X 4E]\	8e/	.	16bbbn\LL)	.	.
.	.	.	(16bbn\	.	.
.	8r	.	16ccc\)	.	.
.	.	.	(16cccc\JJ	.	.
=197	=197	=197	=197	=197	=197
*^	*	*	*	*	*
[>2c/	[>2A\	8a/	.	16aaa\LL	.	.
.	.	.	.	16eee\	.	.
.	.	8r	.	16ccc\	.	.
.	.	.	.	16aa\JJ	.	.
*	*	*	*	*tuplet	*	*
!	!	!	!	!LO:TUP:a	!	!
.	.	8AA<\	.	20ee\LL	.	.
.	.	.	.	20cc\	.	.
.	.	.	.	20a\	.	.
.	.	8rGG<	.	.	.	.
.	.	.	.	20e\	.	.
.	.	.	.	20c\JJ	.	.
8c] 8A/]	4ryy	4rGG<	.	8A/)	.	.
8rc	.	.	.	8r	.	.
=198	=198	=198	=198	=198	=198	=198
*	*	*^	*	*	*	*
4r	4ryy	[4g/	4r	p	(16.c\LL	.	.
!	!	!	!	!	!LO:TX:b:i:t=poco piu mosso.	!	!
.	.	.	.	.	32b-\K	.	.
.	.	.	.	.	16ee\	.	.
.	.	.	.	.	16ccc\JJ)	.	.
4r	4ryy	8g/L]	4r	.	(16bbn\LL	.	.
.	.	.	.	.	16ccc\	.	.
.	.	(16e/L	.	.	16ddd\)	.	.
.	.	16g/JJ	.	.	16ccc`\JJ	.	.
4F#X/	8C\	8a/L	8e-X\	.	(16ff#X^\LL	.	.
.	.	.	.	.	16ee-X\	.	.
.	8r	16f#X/L	8r	.	16cc\	.	.
.	.	16a/JJ)	.	.	16ff#\JJ)	.	.
!!LO:LB:g=original
=199	=199	=199	=199	=199	=199	=199	=199
(4G/	8C\	(4b-/	8en\	.	(16gg^\LL	.	.
.	.	.	.	.	16een\	.	.
.	8r	.	8r	.	16cc\	.	.
.	.	.	.	.	16gg\JJ	.	.
4A/	8C\	4a/	8e\	.	16aa^\LL	.	.
.	.	.	.	.	16ee\	.	.
.	8r	.	8r	.	16cc\	.	.
.	.	.	.	.	16aa\JJ	.	.
4B-/)	8C\	4g/)	8e\	.	16bb-^\LL	.	.
.	.	.	.	.	16gg\	.	.
.	8r	.	8r	.	16cc\)	.	.
.	.	.	.	.	16bb-`\JJ	.	.
*v	*v	*	*	*	*	*	*
*	*v	*v	*	*	*	*
=200	=200	=200	=200	=200	=200
2A 2C\	2cc 2f 2c/	.	(16aa\LL	.	.
.	.	.	16aaa\)	.	.
.	.	.	(16ggg'v\	.	.
.	.	.	16fff'\JJ	.	.
.	.	.	16eee'\LL	.	.
.	.	.	16ddd'\	.	.
.	.	.	16ccc'\	.	.
.	.	.	16bbn'\JJ	.	.
8F\	8a 8c/	.	16ddd'\LL	.	.
.	.	.	16ccc'\	.	.
8r	8r	.	16bb-X'\	.	.
.	.	.	16aa'\JJ	.	.
=201	=201	=201	=201	=201	=201
8c\	8g 8e/	.	16ccc'\LL	.	.
.	.	.	16bb-'\	.	.
8r	8r	.	16gg'\	.	.
.	.	.	16ee'\JJ	.	.
4r	4r	.	16cc'/LL	.	.
.	.	.	16b-'/	.	.
.	.	.	16g'/	.	.
.	.	.	16e'/JJ	.	.
4r	4r	.	8c'/)	.	.
.	.	.	8r	.	.
=202	=202	=202	=202	=202	=202
*^	*^	*	*	*	*
4r	4ryy	[4g/	4r	.	(16.c\LL	.	.
.	.	.	.	.	32b-\K	.	.
.	.	.	.	.	16ee\	.	.
.	.	.	.	.	16ccc\JJ)	.	.
4r	4ryy	8g/L]	4r	.	(16bbn\LL	.	.
.	.	.	.	.	16ccc\	.	.
.	.	(16e/L	.	.	16ddd\)	.	.
.	.	16g/JJ	.	.	16ccc`\JJ	.	.
(4F#X/	8C\	8a/L	8e-X\	.	(16ff#X^\LL	.	.
.	.	.	.	.	16ee-X\	.	.
.	8r	16f#X/L	8r	.	16cc\	.	.
.	.	16a/JJ)	.	.	16ff#\JJ)	.	.
!!LO:LB:g=original
=203	=203	=203	=203	=203	=203	=203	=203
4G/	8C\	(4b-/	8en\	.	(16gg^\LL	.	.
.	.	.	.	.	16een\	.	.
.	8r	.	8r	.	16cc\	.	.
.	.	.	.	.	16gg\JJ	.	.
4A/	8C\	4a/	8e\	.	16aa^\LL	.	.
.	.	.	.	.	16ee\	.	.
.	8r	.	8r	.	16cc\	.	.
.	.	.	.	.	16aa\JJ	.	.
4B-/)	8C\	4g/)	8e\	.	16bb-^\LL	.	.
.	.	.	.	.	16gg\	.	.
.	8r	.	8r	.	16cc\)	.	.
.	.	.	.	.	16bb-`\JJ	.	.
*v	*v	*	*	*	*	*	*
*	*v	*v	*	*	*	*
=204	=204	=204	=204	=204	=204
2A 2C\	2cc 2f 2c/	.	(16aa\LL	.	.
.	.	.	16aaa\)	.	.
.	.	.	(16ggg'\	.	.
.	.	.	16fff'\JJ	.	.
.	.	.	16eee'\LL	.	.
.	.	.	16ddd'\	.	.
.	.	.	16ccc'\	.	.
.	.	.	16bbn'\JJ	.	.
8F\	8a 8c/	.	16ddd'\LL	.	.
.	.	.	16ccc'\	.	.
8r	8r	.	16bb-X'\	.	.
.	.	.	16aa'\JJ	.	.
=205	=205	=205	=205	=205	=205
8c\	8g 8e/	.	16ccc'\LL	.	.
.	.	.	16bb-'\	.	.
8r	8r	.	16gg'\	.	.
.	.	.	16ee'\JJ	.	.
4r	4r	.	16cc'\LL	.	.
.	.	.	16bn'\	.	.
.	.	.	16dd'\	.	.
.	.	.	16cc'\JJ	.	.
4r	4r	.	16b-X'/LL	.	.
.	.	.	16g'/	.	.
.	.	.	16e'/	.	.
.	.	.	16B-X'/JJ)	.	.
=206	=206	=206	=206	=206	=206
4r	[>4cc/	.	(16A\LL	.	.
.	.	.	16f\	.	.
.	.	.	16.cc\	.	.
.	.	.	32ccc\JJk)	.	.
4r	8cc/L]	.	(16bbn\LL	.	.
.	.	.	16ccc\	.	.
.	(>16a/L	.	16ddd\)	.	.
.	16cc/JJ	.	16ccc`\JJ	.	.
4c 4F\	4ee-X 4e-X/)	.	(16aa^\LL	.	.
.	.	.	16ff\	.	.
.	.	.	16ee-X\	.	.
.	.	.	16aa\JJ)	.	.
!!LO:PB:g=original
=207	=207	=207	=207	=207	=207
!	!	!	!LO:TX:b:i:t=leggiero.	!	!
8d 8B-\	8dd\	.	16bb-X`\LL	.	.
.	.	.	16ff`\	.	.
8r	8r	.	16dd`\	.	.
.	.	.	16bb-`\JJ	.	.
*	*	*	*	*below	*
8F\	8f/	.	16ccc`\LL	1	.
.	.	.	16aa`\	3	.
8r	8r	.	16ff`\	.	.
.	.	.	16ccc`\JJ	.	.
8BB-/	8B-/	.	16ddd`\LL	.	.
.	.	.	16bb-`\	.	.
8r	8r	.	16ff`\	.	.
.	.	.	16ddd`\JJ	.	.
=208	=208	=208	=208	=208	=208
4r	[4dd\	.	(16Bn\LL	.	.
.	.	.	16g\	.	.
.	.	.	16.dd\	.	.
.	.	.	32ddd\JJk)	.	.
4r	8dd\L]	.	(16ccc#X^\LL	.	.
.	.	.	16ddd\	.	.
.	(16bn\L	.	16eee\)	.	.
.	16dd\JJ	.	16ddd`\JJ	.	.
4d 4G\	4ff 4f\)	.	(16bbn^\LL	.	.
.	.	.	16gg\	.	.
.	.	.	16ff\	.	.
.	.	.	16bb\JJ)	.	.
=209	=209	=209	=209	=209	=209
8e 8c\	8ee\	.	16ccc`\LL	.	.
.	.	.	16gg`\	.	.
8r	8r	.	16ee`\	.	.
.	.	.	16ccc`\JJ	.	.
8G\	8g/	.	16ddd`\LL	.	.
.	.	.	16bbn`\	.	.
8r	8r	.	16gg`\	.	.
.	.	.	16ddd`\JJ	.	.
8C/	8c/	.	16eee`\LL	.	.
.	.	.	16ccc`\	.	.
8r	8r	.	16gg`\	.	.
.	.	.	16eee`\JJ	.	.
=210	=210	=210	=210	=210	=210
4r	[4ee\	.	(16c#X\LL	.	.
.	.	.	16a\	.	.
.	.	.	16.ee\	.	.
.	.	.	32eee\JJk)	.	.
4r	8ee\L]	.	(16ddd#X^\LL	.	.
.	.	.	16eee\	.	.
.	(16cc#X\L	.	16fff\	.	.
.	16ee\JJ	.	16eee\JJ)	.	.
4e 4c#X 4A\	4ggn 4gn\)	.	16ccc#X'\LL	.	.
.	.	.	16aa'\	.	.
.	.	.	16gg'\	.	.
.	.	.	16ccc#'\JJ	.	.
!!LO:LB:g=original
=211	=211	=211	=211	=211	=211
(2d\	(2ff#X (2f#X\	.	16ddd'\LL	.	.
.	.	.	16aa'\	.	.
.	.	.	16ff#X'\	.	.
.	.	.	16ddd'\JJ	.	.
!	!	!	!LO:N:acc=#	!	!
.	.	.	16bbn'\LL	.	.
.	.	.	16aa'\	.	.
.	.	.	16ff#'\	.	.
.	.	.	16bb'\JJ	.	.
4c#X\	4ee#X 4e#X/	.	16ccc#X'\LL	.	.
.	.	.	16gg#X'\	.	.
.	.	.	16ee#X'\	.	.
.	.	.	16ccc#'\JJ	.	.
=212	=212	=212	=212	=212	=212
4cn\	4een 4en/	.	16aa#X'\LL	.	.
.	.	.	16ggn'\	.	.
.	.	.	16ee'\	.	.
.	.	.	16aa#'\JJ	.	.
4Bn\	4dd#X 4d#X/	.	16bbn'\LL	.	.
.	.	.	16ff#X'\	.	.
.	.	.	16dd#X'\	.	.
.	.	.	16bb'\JJ	.	.
4B-X\)	4ddn 4dn/))	.	16gg#X'\LL	.	.
.	.	.	16ffn'\	.	.
.	.	.	16ddn'\	.	.
.	.	.	16gg#'\JJ	.	.
=213	=213	=213	=213	=213	=213
*^	*	*	*	*	*
!	!	!	!	!LO:TX:b:Bi:t=cres.-:problem:dynamics with extention lines	!	!
2A/	4A\	(2.cc (2.c/	.	16aa`\LL	.	<
.	.	.	.	(16ee\	.	.
.	.	.	.	16cc#X\)	.	.
.	.	.	.	16aa`\JJ	.	.
.	4G#X'>\	.	.	16aa`\LL	.	.
.	.	.	.	(16ee\	.	.
.	.	.	.	16cc#\)	.	.
.	.	.	.	16aa`\JJ	.	.
4Gn'\	4ryy	.	.	16aa`\LL	.	.
.	.	.	.	(16ee\	.	.
.	.	.	.	16cc#\)	.	.
.	.	.	.	16aa`\JJ	.	.
*v	*v	*	*	*	*	*
=214	=214	=214	=214	=214	=214
!	!LO:TX:b:Bi:t=cresc._:problem:dynamics with extention lines	!LO:HP:t=cresc.	!	!	!
8A#X 8F#X\	8cc#X 8a#X 8e 8c#X/))	<	(16aa#X\LL	.	.
.	.	.	16ff#X\	.	.
8r	8r	.	16een\)	.	.
.	.	.	16aa#`\JJ	.	.
8F#X\	8ff#X 8f#X\	.	(16aa#\LL	.	.
.	.	.	16ff#\	.	.
8r	8r	.	16ee\)	.	.
.	.	.	16aa#`\JJ	.	.
!	!	!LO:MO:null:mod=[	!	!	!
8f#X\	8fff#X 8ff#X\	.	(16aa#\LL	.	.
.	.	.	16ff#\	.	.
!	!	!LO:MO:mod=.	!	!	!
8r	8r	[[	16ee\)	.	.
.	.	.	16aa#`\JJ	.	[[
!!LO:LB:g=original
=215||	=215||	=215||	=215||	=215||	=215||
!!!key: A
*k[f#c#g#]	*k[f#c#g#]	*	*k[f#c#g#]	*	*
!	!	!	!	!	!LO:DY:rj
8B 8F# 8BB\	8b 8f# 8d#X/	f	8bb\L	.	f
8r	8r	.	(16bbL 16bu\	.	.
.	.	.	16cccnJJ 16ccn\)	.	.
4r	4r	.	(16cccLL 16cc\	.	.
.	.	.	16bb 16b\)	.	.
.	.	.	(16bb 16b\	.	.
.	.	.	16ddd#XJJ 16dd#X\)	.	.
4r	4r	.	(16ddd#LL 16dd#\	.	.
.	.	.	16bb 16b\)	.	.
.	.	.	(16bb 16b\	.	.
.	.	.	32fff#JJk 32ff#\)	.	.
.	.	.	32r	.	.
=216	=216	=216	=216	=216	=216
2.A 2.F# 2.Cn\	8r	.	[2.fff# [2.ff#\	.	.
.	(16e/LL	.	.	.	.
.	16f#/JJ)	.	.	.	.
.	(16f#/LL	.	.	.	.
.	16e/)	.	.	.	.
.	(16e/	.	.	.	.
.	16a/JJ)	.	.	.	.
.	(16a/LL	.	.	.	.
.	16e/)	.	.	.	.
.	(16e/	.	.	.	.
.	32ee/JJk)	.	.	.	.
.	32r	.	.	.	.
=217	=217	=217	=217	=217	=217
8A 8F# 8BB\	8dd#X 8a 8d#X/	.	16fff#] 16ff#\]	.	.
.	.	.	16r	.	.
8r	8r	.	(16bbLL 16bu\	.	.
.	.	.	16cccnJJ 16ccn\)	.	.
4r	4r	.	(16cccLL 16cc\	.	.
.	.	.	16bb 16b\)	.	.
.	.	.	(16bb 16b\	.	.
.	.	.	16ddd#XJJ 16dd#X\)	.	.
4r	4r	.	(16ddd#LL 16dd#\	.	.
.	.	.	16bb 16b\)	.	.
.	.	.	(16bb 16b\	.	.
.	.	.	32aaaJJk 32aa\)	.	.
.	.	.	32r	.	.
=218	=218	=218	=218	=218	=218
2.A 2.F# 2.Cn\	8r	.	[2.aaa [2.aa\	.	.
.	(16e/LL	.	.	.	.
.	16f#/JJ)	.	.	.	.
.	(16f#^/LL	.	.	.	.
.	16e/)	.	.	.	.
.	(16e/	.	.	.	.
.	16a/JJ)	.	.	.	.
.	(16a^/LL	.	.	.	.
.	16e/)	.	.	.	.
.	(16e/	.	.	.	.
.	32ee/JJk)	.	.	.	.
.	32r	.	.	.	.
!!LO:LB:g=original
=219	=219	=219	=219	=219	=219
8A 8F# 8BB\	8dd#X 8a 8d#X/	.	16aaa] 16aa\]	.	.
.	.	.	16r	.	.
8r	8r	.	(16bbLL 16b\	.	.
.	.	.	16cccnJJ 16ccn\)	.	.
4r	4r	.	(16cccLL 16cc\	.	.
.	.	.	16bb 16b\)	.	.
.	.	.	(16bb 16b\	.	.
.	.	.	16ddd#XJJ 16dd#X\)	.	.
4r	4r	.	(16ddd#LL (16dd#\	.	.
.	.	.	16bb 16b\)	.	.
.	.	.	(16bb 16b\	.	.
.	.	.	32bbbJJk 32bb\))	.	.
.	.	.	32r	.	.
=220	=220	=220	=220	=220	=220
2.r	2.r	.	(16bbbLL 16bb\	.	.
.	.	.	16aaa#X 16aa#X\)	.	.
.	.	.	(16aaa# 16aa#\	.	.
.	.	.	16aaanJJ 16aan\)	.	.
.	.	.	(16aaaLL 16aa\	.	.
.	.	.	16ggg#X 16gg#X\)	.	.
.	.	.	(16ggg# 16gg#\	.	.
.	.	.	16aaaJJ 16aa\)	.	.
.	.	.	(16aaaLL 16aa\	.	.
.	.	.	16ggg# 16gg#\)	.	.
.	.	.	(16ggg# 16gg#\	.	.
.	.	.	16gggnJJ 16ggn\)	.	.
=221	=221	=221	=221	=221	=221
2.r	2.r	.	(16gggnLL 16ggn\	.	.
.	.	.	16fff#X 16ff#X\)	.	.
.	.	.	(16fff# 16ff#\	.	.
.	.	.	16gggJJ 16gg\)	.	.
.	.	.	(16gggLL 16gg\	.	.
.	.	.	16fff# 16ff#\)	.	.
.	.	.	(16fff# 16ff#\	.	.
.	.	.	16eee#XJJ 16ee#X\)	.	.
.	.	.	(16eee#LL 16ee#\	.	.
.	.	.	16eeen 16een\)	.	.
.	.	.	(16eee 16ee\	.	.
.	.	.	16ddd#XJJ 16dd#X\)	.	.
=222	=222	=222	=222	=222	=222
2.r	2.r	.	(16ddd#XLL 16dd#X\	.	.
.	.	.	16eee 16ee\)	.	.
.	.	.	(16eee 16ee\	.	.
.	.	.	16ddd#JJ 16dd#\)	.	.
.	.	.	(16ddd#LL 16dd#\	.	.
.	.	.	16eee 16ee\)	.	.
.	.	.	(16eee 16ee\	.	.
.	.	.	16ddd#JJ 16dd#\)	.	.
.	.	.	(16ddd#LL 16dd#\	.	.
.	.	.	16eee 16ee\)	.	.
.	.	.	(16eee 16ee\	.	.
.	.	.	16ddd#JJ 16dd#\)	.	.
!!LO:PB:g=original
=223	=223	=223	=223	=223	=223
*	*	*^	*	*	*
8r	8r	.	.	(16ddd#XLL 16dd#X\	.	.
.	.	.	.	16eee 16ee\)	.	.
!	!	!LO:DY:rj	!LO:DY:rj:b=2	!LO:TX:b:i:t=rit.	!	!
!	!	!	!LO:MO:mod=.	!	!	!
8E 8EE\	8e< 8E</	ff	ff	(16eee 16ee\	.	.
!	!LO:TX:b:i:t=rit.	!	!	!	!	!
.	.	.	.	16ddd#JJ 16dd#\)	.	.
8D#XL 8EE\	8fn<L 8Fn</	.	.	(16ddd#LL 16dd#\	.	.
.	.	.	.	16eee 16ee\)	.	.
8DnJ 8EE\	8f#X<J 8F#X</	.	.	(16eee 16ee\	.	.
.	.	.	.	16ddd#JJ 16dd#\)	.	.
8C#L 8EE\	8gnL 8Gn/	.	.	(16ddd#LL 16dd#\	.	.
.	.	.	.	16eee 16ee\)	.	.
8BBJ 8EE\	8g#XJ 8d 8G#X/	.	.	16eee 16ee\	.	.
*	*	*	*	*	*Xbelow	*
.	.	.	.	16ee\JJ	0	.
=224	=224	=224	=224	=224	=224	=224
*	*	*	*	*8va	*	*
!	!	!LO:DY:rj	!LO:DY:b=2:rj	!	!	!
16AA 16EE 16AAA\	16a 16e 16c# 16A</	f	ff	16eeeev\	.	.
*	*	*	*	*X8va	*	*
16rEE	16r	.	.	16r	.	.
!	!	!	!	!LO:MO:mod=*null:null	!	!
*	*	*	*	*Xtuplet	*	*
!	!	!	!LO:DY:rj	!	!	!
8rEE	4e 4c# 4A< 4E</	.	p	(24ccc#u\LL	.	.
.	.	.	.	24eee\	.	.
.	.	.	.	24ccc#\JJ	.	.
!	!	!	!	!LO:SIC:s=8.aa^\L)	!	!
4rEE	.	.	.	8.aa\L)	.	.
!	!	!LO:HP:a	!	!	!	!
.	8e 8c# 8A< 8E</	<	.	.	.	.
.	.	.	.	(16ee\Jk	.	.
8rEE	8eL 8c# 8A< 8E</	.	.	16.aa\LL)	.	.
.	.	.	.	(32ee\K	.	.
!	!	!	!LO:DY:b=2:rj	!	!	!
8EE\	8eJ 8d 8G#< 8E</	[[	p	16.bb\)	.	.
.	.	.	.	(32ee\JJk	.	.
=225	=225	=225	=225	=225	=225	=225
!	!	!LO:DY:rj	!LO:DY:b=2:rj	!	!	!
8AA 8AAA\	16e 16c# 16A< 16E</	f	f	16eee\)	.	.
.	16r	.	.	16r	.	.
!	!	!	!LO:DY:rj	!	!	!
8rEE	4e 4c# 4A< 4E</	.	p	(24ccc#u\LL	.	.
.	.	.	.	24eee\	.	.
.	.	.	.	24ccc#\JJ	.	.
!	!	!	!	!LO:SIC:s=8.aa^\L)	!	!
4rEE	.	.	.	8.aa\L)	.	.
.	8e 8c# 8A< 8E</	.	.	.	.	.
!	!	!	!	!LO:SIC:s=(16ee\Jk	!	!
.	.	.	.	((16ee\Jk	.	.
8rEE	8eL 8c# 8A< 8E</	.	.	16.aa\LL)	.	.
.	.	.	.	(32ee\K	.	.
!	!	!	!	!LO:SIC:s=16.bb\)	!	!
8EE\	8eJ 8d 8G#< 8E</	.	.	16.bb\))	.	.
.	.	.	.	(32ee\JJk	.	.
*	*	*v	*v	*	*	*
=226	=226	=226	=226	=226	=226
8AAL 8AAA\	8eL 8c# 8A< 8E</	.	16ccc#\)	.	.
.	.	.	16r	.	.
!	!	!	!LO:SIC:s=(24ccc#^<v\LL	!	!
(8AA\J	(8A/J	.	(24ccc#\LL	.	.
.	.	.	24eee\	.	.
.	.	.	24ccc#\JJ)	.	.
!	!	!	!LO:SIC:s=(24aa^\LL	!	!
8C#\L)	8c#/L)	.	(24aa\LL	.	.
.	.	.	24ccc#\	.	.
.	.	.	24aaJ\)	.	.
!	!	!	!LO:SIC:s=(24ee^L\	!	!
8EJ 8C#'\	8eJ 8c#'/	.	(24eeL\	.	.
.	.	.	24aa\	.	.
.	.	.	24ee\JJ)	.	.
8AL 8E'\	8aL 8e'/	.	24cc#`\LL	.	.
.	.	.	(24ff#\	.	.
.	.	.	24ee\	.	.
8c#J 8A'\	8cc#J 8a'/	.	24dd\	.	.
.	.	.	24cc#\	.	.
.	.	.	24b\JJ	.	.
!!LO:LB:g=original
=227	=227	=227	=227	=227	=227
8e 8c#\	8ee 8cc#'\	.	24a\LL)	.	.
!	!	!	!LO:SIC:s=(<(>24cc#u^/	!	!
.	.	.	(24cc#^\	.	.
!	!	!	!LO:SIC:s=24b/	!	!
.	.	.	24b\	.	.
!	!	!	!LO:SIC:s=24a/	!	!
8r	8r	.	24a\	.	.
!	!	!	!LO:SIC:s=24g#/	!	!
.	.	.	24g#\	.	.
!	!	!	!LO:SIC:s=24f#/JJ	!	!
.	.	.	24f#\JJ	.	.
*clefG2	*	*	*	*	*
8a 8e 8c#'/	8aa 8ee 8cc#'\	.	24e/LL)	.	.
!	!	!	!LO:SIC:s=(>24f#v/	!	!
.	.	.	(24f#/	.	.
.	.	.	24e/	.	.
8r	8r	.	24d/	.	.
.	.	.	24c#/	.	.
.	.	.	24B/JJ	.	.
!	!	!	!LO:SIC:s=8A/L	!	!
8cc# 8a 8e'/	8ccc# 8aa 8ee'\	.	(8A\L	.	.
!	!	!	!LO:SIC:s=16eeJk 16a 16e/))	!	!
8r	8r	.	16eeJk 16a 16e\))	.	.
.	.	.	16r	.	.
*clefF4	*	*	*	*	*
=228	=228	=228	=228	=228	=228
[2.G# [2.BB\	[2.b [2.e [2.B/	p	(8Bu\L	.	.
.	.	.	8eeJ 8b 8g#\	.	.
.	.	.	8bbb\L)	.	.
.	.	.	(16aaa'v\L	.	.
.	.	.	16ggg#'\JJ	.	.
.	.	.	16fff#'\LL	.	.
.	.	.	16eee'\	.	.
.	.	.	16ddd#X'\	.	.
.	.	.	16ccc#'\JJ	.	.
=229	=229	=229	=229	=229	=229
2G#] 2BB\]	2b] 2e] 2B/]	.	16bb'\LL	.	.
.	.	.	16aa#X'\	.	.
.	.	.	16aan'\	.	.
.	.	.	16gg#'\JJ	.	.
.	.	.	16ff#'\LL	.	.
.	.	.	16ee'\	.	.
.	.	.	16dd#X'\	.	.
.	.	.	16cc#'\JJ	.	.
4B 4G#\	4ee 4b 4e/	.	16b'\LL	.	.
.	.	.	16a#X'\	.	.
.	.	.	16an'\	.	.
.	.	.	16g#'\JJ	.	.
=230	=230	=230	=230	=230	=230
.	.	.	16qqf#/LL	.	.
.	.	.	16qqg#/JJ	.	.
2c# 2A\	2f# 2e/	.	32f#\LLL)	.	.
.	.	.	16r	.	.
.	.	.	((32e#Xu\	.	.
.	.	.	32f#\)	.	.
.	.	.	16r	.	.
.	.	.	(32g#\JJJ	.	.
.	.	.	32a\LLL)	.	.
.	.	.	16r	.	.
.	.	.	(32b#X\	.	.
.	.	.	32cc#\)	.	.
.	.	.	16r	.	.
.	.	.	(32ee#X\JJJ	.	.
4A 4F#\	4aa 4ee 4a\	.	32ff#\LLL)	.	.
.	.	.	16r	.	.
.	.	.	(32aa\	.	.
.	.	.	32ddd#X\))	.	.
.	.	.	16r	.	.
.	.	.	(32ccc#v\JJJ	.	.
!!LO:LB:g=original
=231	=231	=231	=231	=231	=231
*	*^	*	*	*	*
4r	4r	[2B\	.	(16bbT\LL	.	.
.	.	.	.	16aa\	.	.
.	.	.	.	16.ff#\))	.	.
.	.	.	.	32dd#X`\JJk	.	.
8r	(4a 4d#X/	.	.	((4ff#\	.	.
8BB'\L	.	.	.	.	.	.
8E'\J	8g# 8e/)	8B\]	.	16ee\)	.	.
.	.	.	.	16r	.	.
8r	8r	8ryy	.	8ee#Xv\	.	.
*	*v	*v	*	*	*	*
=232	=232	=232	=232	=232	=232
2.Dn\	8r	.	16ff#\)	.	.
.	.	.	16r	.	.
.	4f# 4B 4F#</	.	[8ff#u\	.	.
.	.	.	32ff#\LLL]	.	.
.	.	.	16r	.	.
.	.	.	((32a#X\	.	.
.	8f# 8B 8F#</	.	32b\)	.	.
.	.	.	16r	.	.
.	.	.	(32cc#\JJJ	.	.
.	8f#L 8B 8F#</	.	32ddn\LLL)	.	.
.	.	.	16r	.	.
.	.	.	(32ee#X\	.	.
.	8f#J 8B 8F#</	.	32ff#\)	.	.
.	.	.	16r	.	.
.	.	.	(32aa#X\JJJ	.	.
=233	=233	=233	=233	=233	=233
2.BB\	8r	.	32bb\LLL)	.	.
.	.	.	16r	.	.
.	.	.	(32ccc#\	.	.
.	4f# 4d 4F#</	.	32ddd\)	.	.
.	.	.	16r	.	.
.	.	.	(32eee#X\JJJ	.	.
.	.	.	32fff#\LLL)	.	.
.	.	.	16r	.	.
.	.	.	(32ccc#\	.	.
.	8f# 8d 8F#</	.	32ddd\)	.	.
.	.	.	16r	.	.
.	.	.	(32aa#X\JJJ	.	.
.	8f#L 8d 8F#</	.	32bb\LLL)	.	.
.	.	.	16r	.	.
.	.	.	(32ff#\	.	.
.	8f#J 8d 8F#</	.	32bb\)	.	.
.	.	.	16r	.	.
.	.	.	32aan'\JJJ)	.	.
=234	=234	=234	=234	=234	=234
(4d\	8r	.	(16gg#t\LL	.	.
.	.	.	16ff#\	.	.
.	8g# 8e/	.	16gg#\)	.	.
!	!	!	!LO:SIC:s=16ee`\JJ	!	!
.	.	.	16ee'\JJ	.	.
4c#\	8r	.	(16aaT\LL	.	.
.	.	.	16gg#\	.	.
.	8a 8e/	.	16aa\)	.	.
!	!	!	!LO:SIC:s=16ee`\JJ	!	!
.	.	.	16ee'\JJ	.	.
4G#\)	8r	.	(16bbT\LL	.	.
.	.	.	16aa#X\	.	.
.	8b 8e/	.	16bb\)	.	.
!	!	!	!LO:SIC:s=16ee`\JJ	!	!
.	.	.	16ee'\JJ	.	.
!!LO:LB:g=original
=235	=235	=235	=235	=235	=235
.	.	.	16qqccc#/LL	.	.
.	.	.	16qqddd/JJ	.	.
(8A\L	(>8cc#L 8e/	.	(16ccc#\LL	.	.
.	.	.	16bb\	.	.
8c#\J	8ee/J	.	16ccc#\	.	.
.	.	.	16eee\JJ)	.	.
8e\)	8gg# 8g#/)	.	8bb\	.	.
16E\LL	16e/LL	.	(4eev\	.	.
16E\JJ	16e/JJ	.	.	.	.
8E\	8e/	.	.	.	.
8r	8r	.	8ee#X\	.	.
=236	=236	=236	=236	=236	=236
2.D\	8r	.	16ff#\)	.	.
.	.	.	16r	.	.
.	4f# 4B 4F#</	.	[8ff#^u\	.	.
.	.	.	32ff#\LLL]	.	.
.	.	.	16r	.	.
.	.	.	((32a#X\	.	.
.	8f# 8B 8F#</	.	32b\)	.	.
.	.	.	16r	.	.
.	.	.	(32cc#\JJJ	.	.
.	8f#L 8B 8F#</	.	32dd\LLL)	.	.
.	.	.	16r	.	.
.	.	.	(32ee#X\	.	.
.	8f#J 8B 8F#</	.	32ff#\)	.	.
.	.	.	16r	.	.
.	.	.	(32aa#X\JJJ	.	.
=237	=237	=237	=237	=237	=237
2.BB\	8r	.	32bb\LLL)	.	.
.	.	.	16r	.	.
.	.	.	(32ccc#\	.	.
.	4f# 4d 4F#</	.	32ddd\)	.	.
.	.	.	16r	.	.
.	.	.	(32eee#X\JJJ	.	.
.	.	.	32fff#\LLL)	.	.
.	.	.	16r	.	.
.	.	.	(32ccc#\	.	.
.	8f# 8d 8F#</	.	32ddd\)	.	.
.	.	.	16r	.	.
.	.	.	(32aa#X\JJJ	.	.
.	8f#L 8d 8F#</	.	32bb\LLL)	.	.
.	.	.	16r	.	.
.	.	.	(32ff#\	.	.
.	8f#J 8d 8F#</	.	32bb\)	.	.
.	.	.	16r	.	.
.	.	.	32aan\JJJ)	.	.
=238	=238	=238	=238	=238	=238
(4d\	8r	.	(16gg#t\LL	.	.
.	.	.	16ff#\	.	.
.	8g# 8e/	.	16gg#\)	.	.
.	.	.	16ee`\JJ	.	.
4c#\	8r	.	(16aaT\LL	.	.
.	.	.	16gg#\	.	.
.	8a 8e/	.	16aa\)	.	.
.	.	.	16ee`\JJ	.	.
4G#\	8r	.	(16bbT\LL	.	.
.	.	.	16aa#X\	.	.
.	8b 8e/	.	16bb\)	.	.
.	.	.	16ee`\JJ	.	.
!!LO:LB:g=original
=239	=239	=239	=239	=239	=239
*^	*	*	*	*	*
4A\)	2ryy	8r	.	(16ccc#t\LL	.	.
.	.	.	.	16bb\	.	.
.	.	8cc# 8e/	.	16ccc#\)	.	.
.	.	.	.	16ee`\JJ	.	.
[4B 4F#\	.	8r	.	(16ddd#Xt\LL	.	.
.	.	.	.	16ccc#\	.	.
.	.	8dd#X 8a\	.	16ddd#\)	.	.
.	.	.	.	16ee`\JJ	.	.
8B/]	8E\L	8ee 8g#\	.	(4eee\	.	.
8ryy	8Dn\J	8r	.	.	.	.
*v	*v	*	*	*	*	*
=240	=240	=240	=240	=240	=240
!	!	!LO:DY:rj	!	!	!
8fn: 8A: 8Cn:\	(2aa 2a\	p	8fffn\L)	.	.
8r	.	.	(24cccn\L	.	.
.	.	.	24fff\	.	.
.	.	.	24ccc\JJ	.	.
4r	.	.	8.aa\L)	.	.
.	.	.	(16ccn\Jk	.	.
!	!	!LO:DY:b=2	!	!	!
(4fn\	4ffn\	p	16.ffn\LL)	.	.
.	.	.	(32cc\K	.	.
.	.	.	16.ggn\)	.	.
.	.	.	(32cc\JJk	.	.
=241	=241	=241	=241	=241	=241
2cn\	2ccn\	.	8aa\L)	.	.
.	.	.	(24aa\L	.	.
.	.	.	24cccn\	.	.
.	.	.	24aa\JJ	.	.
.	.	.	8.ffn\L)	.	.
!	!	!	!LO:SIC:s=(16a\Jk	!	!
.	.	.	((16a\Jk	.	.
4A\	4a/	.	16.ccn\LL)	.	.
.	.	.	(32a\K	.	.
!	!	!	!LO:SIC:s=16.ee\)	!	!
.	.	.	16.ee\))	.	.
.	.	.	(32a\JJk	.	.
=242	=242	=242	=242	=242	=242
4Fn\	4fn/	.	24ffn\LL)	.	.
.	.	.	(24aa\	.	.
.	.	.	24ggn\	.	.
.	.	.	24ff\	.	.
.	.	.	24ee\	.	.
.	.	.	24dd\JJ	.	.
4AA/	4A/	.	24ccn\LL)	.	.
.	.	.	(24ff\	.	.
.	.	.	24ee\	.	.
.	.	.	24dd\	.	.
.	.	.	24cc\	.	.
.	.	.	24b-X\JJ	.	.
4Cn/	4cn/	.	24a\LL)	.	.
.	.	.	(24dd\	.	.
.	.	.	24cc\	.	.
.	.	.	24b-\	.	.
.	.	.	24a\	.	.
.	.	.	24gn\JJ	.	.
!!LO:PB:g=original
=243	=243	=243	=243	=243	=243
4Fn\	4fn/	.	24fn/LL)	.	.
.	.	.	(24a/	.	.
.	.	.	24gn/	.	.
.	.	.	24f/	.	.
.	.	.	24e/	.	.
.	.	.	24d/JJ	.	.
!	!	!	!LO:TX:a:t=sul G.	!	!
4A\	4a/	.	24cn/LL)	.	.
.	.	.	(24cv</	.	.
.	.	.	24d/	.	.
.	.	.	24e/	.	.
.	.	.	24f/	.	.
.	.	.	24g/JJ	.	.
4fn\)	4ffn\)	.	8a/L	.	.
.	.	.	16r	.	.
.	.	.	16d#Xv</Jk)	.	.
=244	=244	=244	=244	=244	=244
16c# 16A 16E\	16ee 16cc# 16a 16e/	.	16e/LL	.	.
16r	16r	.	(16B#X/	.	.
8e 8c#\	(24cc#\LL	.	16c#X/)	.	.
.	24ee\	<	.	.	.
.	.	.	16e`/JJ	.	.
.	24cc#\JJ	.	.	.	.
4c# 4A\	8.a/L)	.	16a\LL	.	.
.	.	.	16cc#\	.	.
.	.	.	16ee\	.	.
.	(16e/Jk	.	16aa\JJ	.	.
8AL 8C#\	16.a/LL)	.	16ccc#\LL	.	.
.	.	.	(16ee\	.	.
.	(32e/K	.	.	.	.
8BJ 8E\	16.b/)	.	16ddd\)	.	.
.	.	.	(16ee\JJ	.	.
.	32e/JJk	.	.	.	.
=245	=245	=245	=245	=245	=245
*	*	*^	*	*	*
8c# 8A#X 8Gn 8E\	8cc# 8a#X 8gn 8e/	.	.	16eee\LL)	.	.
.	.	.	.	(16ccc#\	.	.
8r	8r	.	.	16aa#X\)	.	.
.	.	.	.	16ggn\JJ	.	.
8r	8r	.	.	16ee\LL	.	.
!	!	!	!LO:DY:b=2	!	!	!
.	.	f	f	16cc#\	.	.
16EE\LL	16E</LL	.	.	16a#X\	.	.
16EE\JJ	16E</JJ	.	.	16gn\JJ	.	.
8EE\L	8E</L	.	.	16e`/LL	.	.
.	.	.	.	(16c#/	.	.
8EE\J	8E</J	.	.	16B^T/	.	.
.	.	.	.	16A#X/JJ)	.	.
*	*	*v	*v	*	*	*
=246	=246	=246	=246	=246	=246
16E 16EE/	16dd 16b 16f# 16d/	.	(16B/LL	.	.
16r	16r	.	16c#/)	.	.
8f# 8d\	(24dd\LL	.	16d/	.	.
.	24ff#\	.	.	.	.
.	.	.	16f#/JJ	.	.
.	24dd\JJ	.	.	.	.
4d 4B\	8.b/L)	.	16b\LL	.	.
.	.	.	16dd\	.	.
.	.	.	16ff#\	.	.
.	(16f#/Jk	.	16bb\JJ	.	.
8BL 8D\	16.b/LL)	.	16ddd`\LL	.	.
.	.	.	(16ff#\	.	.
.	(32f#/K	.	.	.	.
8c#J 8F#\	16.cc#/)	.	16eee\)	.	.
.	.	.	(16ff#\JJ	.	.
.	32f#/JJk	.	.	.	.
!!LO:LB:g=original
=247	=247	=247	=247	=247	=247
8d#X 8B#X 8A 8F#\	8dd#X 8b#X 8a 8f#/	.	16fff#\LL)	.	.
.	.	.	16ddd#X\	.	.
8r	8r	.	16cccn\	.	.
.	.	.	16aa\JJ	.	.
8r	8r	.	16ff#\LL	.	.
.	.	.	16dd#X\	.	.
16EE\LL	16E</LL	.	16ccn\	.	.
16EE\JJ	16E</JJ	.	16a\JJ	.	.
8EE\L	8E</L	.	16f#/LL	.	.
.	.	.	16d#X/	.	.
8EE\J	8E</J	.	(16cn/	.	.
.	.	.	16A/JJ)	.	.
=248	=248	=248	=248	=248	=248
8E 8AA 8EE/	8ee 8cc# 8a 8e/	.	(16eeLL 16cc# 16e\	.	.
.	.	.	16eeee\)	.	.
8r	8r	.	16cccc#\	.	.
.	.	.	16aaa\JJ	.	.
4r	4r	.	16eee\LL	.	.
.	.	.	16ccc#\	.	.
.	.	.	16aa\	.	.
.	.	.	16ee\JJ	.	.
4r	4r	.	16cc#\LL	.	.
.	.	.	16a\	.	.
.	.	.	16eee^\	.	.
.	.	.	16ccc#\JJ	.	.
=249	=249	=249	=249	=249	=249
2.r	2.r	.	16aa\LL	.	.
.	.	.	16ee\	.	.
.	.	.	16cc#\	.	.
.	.	.	16a\JJ	.	.
.	.	.	16e\LL	.	.
.	.	.	16c#\	.	.
.	.	.	16ee^\	.	.
.	.	.	16cc#\JJ	.	.
.	.	.	16a/LL	.	.
.	.	.	16e/	.	.
.	.	.	16c#/	.	.
.	.	.	16A/JJ	.	.
=250	=250	=250	=250	=250	=250
2.r	2.r	.	16G#/LL	.	.
.	.	.	16A/	.	.
.	.	.	16c#/	.	.
.	.	.	16e/JJ	.	.
.	.	.	16a\LL	.	.
.	.	.	16cc#\	.	.
.	.	.	16ee\	.	.
.	.	.	16aa\JJ	.	.
.	.	.	16ccc#\LL	.	.
.	.	.	16eee\	.	.
.	.	.	16aaa\	.	.
.	.	.	16cccc#\JJ	.	.
=251	=251	=251	=251	=251	=251
2.r	2.r	.	16eeee\	.	.
.	.	.	16r	.	.
!	!	!	!LO:N:n=2:vis=2	!	!
.	.	.	8ddd#yy 8gg#r 8dd#Xrv\	.	.
!	!	!	!LO:N:n=2:vis=2	!	!
.	.	.	8eeeyy 8aarL 8eer\	.	.
!	!	!	!LO:N:n=2:vis=2	!	!
.	.	.	8fff#yy 8bbrJ 8ff#r\	.	.
!	!	!	!LO:N:n=2:vis=2	!	!
.	.	.	8ggg#yy 8ccc#rL 8gg#r\	.	.
!	!	!	!LO:N:n=2:vis=2	!	!
.	.	.	8aaayy 8ddd#yrJ 8aar\	.	.
!!LO:LB:g=original
=252	=252	=252	=252	=252	=252
2.r	8aL 8d#X 8B/	.	(4BT/	.	.
.	8a 8d# 8B/	.	.	.	.
.	8a 8d# 8B/	.	4d#Xt/	.	.
.	8a 8d# 8B/	.	.	.	.
.	8a 8d# 8B/	.	4f#T/)	.	.
.	8aJ 8d# 8B/	.	.	.	.
=253	=253	=253	=253	=253	=253
2.r	8aL 8d#X 8B/	.	(4bT\	.	.
.	8a 8d# 8B/	.	.	.	.
.	8a 8d# 8B/	.	4dd#Xt\	.	.
.	8a 8d# 8B/	.	.	.	.
.	8a 8d# 8B/	.	4ff#T\)	.	.
.	8aJ 8d# 8B/	.	.	.	.
=254	=254	=254	=254	=254	=254
2.r	8aL 8d#X 8B/	.	(4bb 4bT<\	.	.
.	8a 8d# 8B/	.	.	.	.
.	8a 8d# 8B/	.	4ccc# 4cc#t<\	.	.
.	8a 8d# 8B/	.	.	.	.
.	8a 8d# 8B/	.	4ddd#X 4dd#Xt<\)	.	.
.	8aJ 8d# 8B/	.	.	.	.
=255	=255	=255	=255	=255	=255
(4BB/	8aL 8d#X 8B/	.	(4ddd#X 4dd#Xt<\	.	.
.	8aJ 8d# 8B/	.	.	.	.
4C#/	8aL 8e 8B/	.	4eee 4eeT<\	.	.
.	8aJ 8e 8B/	.	.	.	.
4D#X/)	8aL 8f# 8B/	.	4fff# 4ff#T<\)	.	.
.	8aJ 8f# 8B/	.	.	.	.
=256	=256	=256	=256	=256	=256
[2.E\	8bL 8e 8dn/	.	2.ggg# 2.gg#t<\	.	.
.	8b 8e 8d/	.	.	.	.
.	8b 8e 8d/	.	.	.	.
.	8b 8e 8d/	.	.	.	.
.	8b 8e 8d/	.	.	.	.
.	8bJ 8e 8d/	.	.	.	.
=257	=257	=257	=257	=257	=257
2.E\_	8bL 8e 8d/	.	2.bbbT<\	.	.
.	8b 8e 8d/	.	.	.	.
.	8b 8e 8d/	.	.	.	.
.	8b 8e 8d/	.	.	.	.
.	8b 8e 8d/	.	.	.	.
.	8bJ 8e 8d/	.	.	.	.
!!LO:LB:g=original
=258	=258	=258	=258	=258	=258
*	*	*	*8va	*	*
8E\L]	8bL 8e 8d/	.	[2.eeee\	.	.
8D#X'\	8b 8e 8d/	.	.	.	.
8F#'\	8b 8e 8d/	.	.	.	.
8E'\	8b 8e 8d/	.	.	.	.
8Dn'\	8b 8e 8d/	.	.	.	.
8BB'\J	8bJ 8e 8d/	.	.	.	.
=259	=259	=259	=259	=259	=259
8GG#'/L	8bL 8e 8d/	.	4eeee\]	.	.
!	!LO:TX:b:i:t=rit.	!	!	!	!
8EE'/	8b 8e 8d/	.	.	.	.
*	*	*	*X8va	*	*
!	!	!	!LO:TX:b:i:t=rit.	!	!
8DD'/	8b 8e 8d/	.	(<2gg#t<\	.	.
8BBB'/	8b 8e 8d/	.	.	.	.
8GGG#'/	8b 8e 8d/	.	.	.	.
8EEE'/J	8bJ 8e 8d/	.	.	.	.
.	.	.	16qqff#/LL	.	.
.	.	.	16qqgg#/JJ)	.	.
=260	=260	=260	=260	=260	=260
!	!LO:MO:mod=!LO&colon;TX&colon;a&colon;B&colon;t=a Tempo	!	!LO:MO:mod=!LO&colon;TX&colon;a&colon;B&colon;t=a Tempo	!	!
!	!LO:TX:a:B:t=Tempo.	!	!null	!	!
4AAA/	4a 4c#/	.	16aa\	.	.
.	.	.	16r	.	.
.	.	.	(24ccc#u\LL	.	.
.	.	.	24eee\	.	.
.	.	.	24ccc#\JJ	.	.
8.r	8.r	.	8.aa\L)	.	.
16A 16C#\	16a 16c#/	f	(16ee\Jk	.	.
8AL 8C#\	8aL 8c#/	.	16.aa\LL)	.	.
.	.	.	(32ee\K	.	.
8BJ 8E\	8bJ 8e/	.	16.bb\)	.	.
.	.	.	(32ee\JJk	.	.
=261	=261	=261	=261	=261	=261
16c# 16A\	16cc# 16a\	.	16ccc#\)	.	.
16r	16r	.	16r	.	.
8r	8r	.	(24ccc#\LL	.	.
.	.	.	24eee\	.	.
.	.	.	24ccc#\JJ	.	.
8.r	8.r	.	8.aa\L)	.	.
!	!	!	!LO:SIC:s=(16ee\Jk	!	!
16A 16C#\	16a 16c#/	.	((16ee\Jk	.	.
8AL 8C#\	8aL 8c#/	.	16.aa\LL)	.	.
.	.	.	(32ee\K	.	.
!	!	!	!LO:SIC:s=16.bb\)	!	!
8BJ 8E\	8bJ 8d/	.	16.bb\))	.	.
.	.	.	(32ee\JJk	.	.
=262	=262	=262	=262	=262	=262
16c# 16A\	16cc# 16a\	.	16ccc#\)	.	.
16r	16r	.	16r	.	.
!LO:SIC:s=(8AA^	!	!	!	!	!
(8AA/	(8A^/	.	(24ccc#\LL	.	.
.	.	.	24eee\	.	.
.	.	.	24ccc#\JJ)	.	.
8C#/L)	8c#/L)	<	(24aa\LL	.	<
.	.	.	24ccc#\	.	.
.	.	.	24aa\J)	.	.
8EJ 8C#'/	8eJ 8c#'/	.	(24ee\L	.	.
.	.	.	24aa\	.	.
.	.	.	24ee\JJ)	.	.
8AL 8E'\	8aL 8e'/	.	24cc#u\LL	.	.
.	.	.	(24aa\	.	.
.	.	.	24gg#\	.	.
8c#J 8A'\	8cc#J 8a'/	[[	24ff#\	.	.
.	.	.	24ee\	.	.
.	.	.	24dd\JJ	.	.
!!LO:LB:g=original
=263	=263	=263	=263	=263	=263
8e 8c#\	8ee 8cc#\	.	24cc#\LL)	.	.
.	.	.	(24ff#u\	.	.
.	.	.	24ee\	.	.
8r	8r	.	24dd\	.	.
.	.	.	24cc#\	.	.
.	.	.	24b\JJ	.	.
*clefG2	*	*	*	*	*
8a 8e 8c#'/	8aa 8ee 8cc#'\	.	24a\LL)	.	.
.	.	.	(24cc#v\	.	.
.	.	.	24b\	.	.
8r	8r	.	24a\	.	.
.	.	.	24g#\	.	.
.	.	.	24f#\JJ	.	.
8cc# 8a 8e'/	8ccc# 8aa 8ee'\	.	24e/LL	.	.
.	.	.	24f#/	.	.
.	.	.	24e/	.	.
8r	8r	.	24d/	.	.
.	.	.	24c#/	.	.
.	.	.	24B/JJ	.	.
=264	=264	=264	=264	=264	=264
8ee 8cc# 8a\	8aaa 8eee 8ccc# 8aa\	f	8A/)	.	.
8r	8r	.	8r	.	.
4r	4r	.	8aa 8cc# 8eu\	.	.
.	.	.	8r	.	.
.	.	.	8qa/	.	.
!	!	!	!LO:N:n=2:vis=2	!	!
4r	4r	.	8aaayy 8dddr 8aarv\	.	.
.	.	.	8r	.	.
=265	=265	=265	=265	=265	=265
*	*8va	*	*	*	*
8aa 8ee 8cc# 8a\	8cccc# 8aaa 8eee 8ccc#\	.	4a 4A/	.	.
*	*X8va	*	*	*	*
8r	8r	.	.	.	.
8r	8r	.	8r	.	.
*clefF4	*	*	*	*	*
16AALL 16AAA/	16aLL 16A/	.	16aLL 16Au/	.	.
16AAJJ 16AAA/	16aJJ 16A/	.	16aJJ 16A/	.	.
8AAL 8AAA/	8aL 8A/	.	8aL 8Au/	.	.
8AAJ 8AAA/	8aJ 8A/	.	8aJ 8Au/	.	.
=266	=266	=266	=266	=266	=266
*^	*	*	*	*	*
*	*tremolo	*	*	*	*	*
2.AA/	(>32AAA\LLL	[2.a [2.A/	.	[2.a [2.A/	.	.
.	32EE\	.	.	.	.	.
.	32AAA\	.	.	.	.	.
.	32EE\	.	.	.	.	.
.	32AAA\	.	.	.	.	.
.	32EE\	.	.	.	.	.
.	32AAA\	.	.	.	.	.
.	32EE\	.	.	.	.	.
.	32AAA\	.	.	.	.	.
.	32EE\	.	.	.	.	.
.	32AAA\	.	.	.	.	.
.	32EE\	.	.	.	.	.
.	32AAA\	.	.	.	.	.
.	32EE\	.	.	.	.	.
.	32AAA\	.	.	.	.	.
.	32EE\	.	.	.	.	.
.	32AAA\	.	.	.	.	.
.	32EE\	.	.	.	.	.
.	32AAA\	.	.	.	.	.
.	32EE\	.	.	.	.	.
.	32AAA\	.	.	.	.	.
.	32EE\	.	.	.	.	.
.	32AAA\	.	.	.	.	.
.	32EE\JJJ)	.	.	.	.	.
*	*Xtremolo	*	*	*	*	*
=267	=267	=267	=267	=267	=267	=267
8AA/	8AAA\	8a] 8A/]	.	8a] 8A/]	.	.
8r	8ryy	8r	.	8r	.	.
4r	4ryy	4r	.	4r	.	.
!LO:TX:b:i:t=Fine.:mod=	!	!	!	!	!	!
4r	4ryy	4r	.	4r	.	.
*v	*v	*	*	*	*	*
==	==	==	==	==	==
*-	*-	*-	*-	*-	*-
!!!system-decoration: s1{(s2,s3)}
!!!RDF**kern: > = above
!!!RDF**kern: < = below
!!!filter-modern: sic -sq | shed -e "s/:rj/:RJ/L" | shed -e "s/TX(.*):t=P:/tx$1:t=P:/LG" | shed -k -e "s/:TUP:/:tup:/L" | modori -m
!!!ENC: Andrzej Kubiczek
!!!END: 2022-05-15
!!!ENC: Andrzej Kubiczek
!!!END: 2022-05-17
!!!ENC-modern: Marta Lawrence
!!!END-modern: 2022-07-21
